; generated by PrusaSlicer 2.5.0+win64 on 2023-07-10 at 12:38:53 UTC

; 

; external perimeters extrusion width = 0.42mm
; perimeters extrusion width = 0.44mm
; infill extrusion width = 0.44mm
; solid infill extrusion width = 0.44mm
; top infill extrusion width = 0.40mm
; support material extrusion width = 0.36mm
; first layer extrusion width = 0.42mm

M107
;TYPE:Custom
G90 ; use absolute coordinates
M83 ; extruder relative mode
M140 S60 ; set final bed temp
M104 S150 ; set temporary nozzle temp to prevent oozing during homing
G4 S10 ; allow partial nozzle warmup
G28 ; home all axis
G1 Z50 F240
G1 X2 Y10 F3000
M104 S210 ; set final nozzle temp
M190 S60 ; wait for bed temp to stabilize
M109 S210 ; wait for nozzle temp to stabilize
G1 Z0.28 F240
G92 E0
G1 Y140 E10 F1500 ; prime the nozzle
G1 X2.3 F5000
G92 E0
G1 Y10 E10 F1200 ; prime the nozzle
G92 E0
G21 ; set units to millimeters
G90 ; use absolute coordinates
M83 ; use relative distances for extrusion
; Filament gcode
M107
;LAYER_CHANGE
;Z:0.2
;HEIGHT:0.2
;BEFORE_LAYER_CHANGE
G92 E0
;0.2


G1 E-5 F3600
G1 Z.2 F9000
;AFTER_LAYER_CHANGE
;0.2
G1 X56.111 Y56.967
G1 E5 F2400
M204 S500
;TYPE:Skirt/Brim
;WIDTH:0.42
G1 F1200
G1 X57.689 Y55.509 E.06737
G1 X59.023 Y54.645 E.04983
G1 X59.86 Y54.218 E.02947
G1 X61.717 Y53.569 E.06168
G1 X62.638 Y53.38 E.02947
G1 X64.176 Y53.228 E.04846
G1 X166.824 Y53.228 E3.21846
G1 X168.736 Y53.444 E.06031
G1 X170.79 Y54.074 E.06737
G1 X171.646 Y54.462 E.02947
G1 X173.002 Y55.289 E.04982
G1 X174.033 Y56.111 E.04132
G1 X175.491 Y57.689 E.06737
G1 X176.355 Y59.023 E.04983
G1 X176.782 Y59.86 E.02947
G1 X177.431 Y61.717 E.06168
G1 X177.62 Y62.638 E.02947
G1 X177.756 Y63.896 E.03967
G1 X177.777 Y166.635 E3.22131
G1 X177.556 Y168.736 E.06623
G1 X176.927 Y170.79 E.06737
G1 X176.538 Y171.646 E.02947
G1 X175.711 Y173.002 E.04983
G1 X174.889 Y174.033 E.04132
G1 X173.311 Y175.491 E.06737
G1 X171.977 Y176.355 E.04982
G1 X171.14 Y176.782 E.02947
G1 X169.647 Y177.326 E.04982
G1 X168.735 Y177.556 E.02947
G1 X166.635 Y177.777 E.06623
G1 X64.365 Y177.777 E3.20658
G1 X62.265 Y177.556 E.06623
G1 X60.21 Y176.926 E.06737
G1 X59.023 Y176.355 E.04132
G1 X57.689 Y175.491 E.04982
G1 X56.967 Y174.889 E.02947
G1 X55.509 Y173.311 E.06737
G1 X54.645 Y171.977 E.04982
G1 X54.218 Y171.14 E.02947
G1 X53.674 Y169.647 E.04983
G1 X53.444 Y168.736 E.02947
G1 X53.223 Y166.635 E.06623
G1 X53.223 Y64.365 E3.20658
G1 X53.444 Y62.265 E.06623
G1 X54.073 Y60.21 E.06737
G1 X54.645 Y59.023 E.04132
G1 X55.509 Y57.689 E.04982
G1 X56.073 Y57.013 E.02759
G1 E-3.5 F3600
;WIPE_START
G1 F7200
G1 X57.689 Y55.509 E-1.0489
G1 X58.354 Y55.078 E-.3761
;WIPE_END
G1 E-.075 F3600
G1 X58.771 Y59.482 F9000
G1 E5 F2400
G1 F1200
G1 X59.926 Y58.415 E.04928
G1 X61.287 Y57.599 E.04977
G1 X62.786 Y57.083 E.04971
G1 X64.373 Y56.887 E.05013
G1 X166.652 Y56.888 E3.20689
G1 X168.229 Y57.087 E.04984
G1 X169.724 Y57.604 E.04959
G1 X171.081 Y58.421 E.04966
G1 X172.232 Y59.485 E.04916
G1 X173.502 Y61.504 E.07479
G1 X173.943 Y62.901 E.04594
G1 X174.113 Y64.377 E.04658
G1 X174.113 Y166.623 E3.20584
G1 X173.943 Y168.099 E.04658
G1 X173.502 Y169.496 E.04594
G1 X172.229 Y171.518 E.07492
G1 X171.074 Y172.585 E.04928
G1 X169.713 Y173.401 E.04977
G1 X168.214 Y173.917 E.04971
G1 X166.627 Y174.113 E.05013
G1 X64.377 Y174.113 E3.20597
G1 X62.901 Y173.943 E.04658
G1 X61.504 Y173.502 E.04595
G1 X59.482 Y172.229 E.07491
G1 X58.415 Y171.074 E.04928
G1 X57.599 Y169.713 E.04977
G1 X57.083 Y168.214 E.04971
G1 X56.887 Y166.627 E.05013
G1 X56.887 Y64.377 E3.20597
G1 X57.057 Y62.901 E.04658
G1 X57.498 Y61.504 E.04594
G1 X58.739 Y59.533 E.07303
G1 X59.045 Y59.742 F9000
G1 F1200
G1 X60.167 Y58.706 E.04788
G1 X61.463 Y57.933 E.0473
G1 X62.889 Y57.447 E.04725
G1 X64.384 Y57.264 E.04723
G1 X166.64 Y57.265 E3.20617
G1 X168.126 Y57.45 E.04693
G1 X169.547 Y57.938 E.04713
G1 X170.839 Y58.711 E.0472
G1 X171.957 Y59.745 E.04776
G1 X173.15 Y61.641 E.07021
G1 X173.577 Y62.997 E.04461
G1 X173.736 Y64.388 E.04388
G1 X173.736 Y166.612 E3.20517
G1 X173.577 Y168.003 E.04388
G1 X173.149 Y169.36 E.04461
G1 X171.954 Y171.258 E.07033
G1 X170.833 Y172.294 E.04788
G1 X169.537 Y173.067 E.0473
G1 X168.111 Y173.553 E.04725
G1 X166.616 Y173.736 E.04723
G1 X64.388 Y173.736 E3.20528
G1 X62.997 Y173.577 E.04388
G1 X61.64 Y173.149 E.04462
G1 X59.742 Y171.954 E.07033
G1 X58.706 Y170.833 E.04788
G1 X57.933 Y169.537 E.0473
G1 X57.447 Y168.111 E.04725
G1 X57.264 Y166.616 E.04723
G1 X57.264 Y64.388 E3.20528
G1 X57.423 Y62.997 E.04388
G1 X57.851 Y61.64 E.04462
G1 X59.014 Y59.793 E.06845
G1 X59.32 Y60.002 F9000
G1 F1200
G1 X60.378 Y59.019 E.04528
G1 X61.605 Y58.283 E.04484
G1 X62.955 Y57.818 E.04478
G1 X64.396 Y57.641 E.04552
G1 X166.629 Y57.642 E3.20543
G1 X168.059 Y57.821 E.0452
G1 X169.405 Y58.287 E.04467
G1 X170.627 Y59.023 E.04474
G1 X171.682 Y60.004 E.04517
G1 X172.798 Y61.778 E.06569
G1 X173.205 Y63.059 E.04215
G1 X173.359 Y64.399 E.04228
G1 X173.359 Y166.601 E3.20449
G1 X173.205 Y167.941 E.04228
G1 X172.797 Y169.222 E.04216
G1 X171.68 Y170.999 E.0658
G1 X170.622 Y171.981 E.04528
G1 X169.395 Y172.717 E.04484
G1 X168.045 Y173.182 E.04478
G1 X166.604 Y173.359 E.04552
G1 X64.399 Y173.359 E3.20458
G1 X63.059 Y173.205 E.04228
G1 X61.778 Y172.797 E.04216
G1 X60.002 Y171.68 E.0658
G1 X59.019 Y170.622 E.04528
G1 X58.283 Y169.395 E.04484
G1 X57.818 Y168.045 E.04478
G1 X57.641 Y166.604 E.04552
G1 X57.641 Y64.399 E3.20458
G1 X57.795 Y63.059 E.04228
G1 X58.203 Y61.778 E.04216
G1 X59.288 Y60.052 E.06392
G1 X59.596 Y60.26 F9000
G1 F1200
G1 X60.591 Y59.331 E.04268
G1 X61.746 Y58.633 E.04234
G1 X63.059 Y58.181 E.04352
G1 X64.407 Y58.018 E.04258
G1 X166.617 Y58.019 E3.20472
G1 X167.955 Y58.185 E.04228
G1 X169.228 Y58.621 E.04218
G1 X170.416 Y59.336 E.04347
G1 X171.407 Y60.263 E.04255
G1 X172.446 Y61.916 E.06121
G1 X172.833 Y63.121 E.03969
G1 X172.982 Y64.41 E.04068
G1 X172.982 Y166.59 E3.2038
G1 X172.833 Y167.879 E.04068
G1 X172.446 Y169.084 E.03969
G1 X171.404 Y170.74 E.06132
G1 X170.409 Y171.669 E.04268
G1 X169.254 Y172.367 E.04234
G1 X167.941 Y172.819 E.04352
G1 X166.593 Y172.982 E.04258
G1 X64.41 Y172.982 E3.20388
G1 X63.121 Y172.833 E.04068
G1 X61.916 Y172.446 E.03969
G1 X60.26 Y171.404 E.06132
G1 X59.331 Y170.409 E.04268
G1 X58.633 Y169.254 E.04234
G1 X58.181 Y167.941 E.04352
G1 X58.018 Y166.593 E.04258
G1 X58.018 Y64.41 E3.20388
G1 X58.167 Y63.121 E.04068
G1 X58.554 Y61.916 E.03969
G1 X59.564 Y60.311 E.05944
G1 X59.871 Y60.518 F9000
G1 F1200
G1 X60.803 Y59.644 E.04006
G1 X61.924 Y58.966 E.04106
G1 X63.161 Y58.545 E.04099
G1 X64.418 Y58.395 E.03969
G1 X166.605 Y58.396 E3.20401
G1 X167.889 Y58.556 E.04055
G1 X169.085 Y58.971 E.0397
G1 X170.203 Y59.648 E.04098
G1 X171.131 Y60.521 E.03994
G1 X172.094 Y62.054 E.05676
G1 X172.468 Y63.218 E.03836
G1 X172.605 Y64.42 E.03793
G1 X172.605 Y166.58 E3.20314
G1 X172.468 Y167.782 E.03793
G1 X172.094 Y168.947 E.03836
G1 X171.129 Y170.482 E.05686
G1 X170.197 Y171.356 E.04006
G1 X169.076 Y172.034 E.04106
G1 X167.839 Y172.455 E.04099
G1 X166.582 Y172.605 E.03969
G1 X64.42 Y172.605 E3.2032
G1 X63.218 Y172.468 E.03793
G1 X62.053 Y172.094 E.03837
G1 X60.518 Y171.129 E.05686
G1 X59.644 Y170.197 E.04006
G1 X58.966 Y169.076 E.04106
G1 X58.545 Y167.839 E.04099
G1 X58.395 Y166.582 E.03969
G1 X58.395 Y64.42 E3.2032
G1 X58.532 Y63.218 E.03793
G1 X58.906 Y62.053 E.03836
G1 X59.84 Y60.569 E.05498
G1 X60.148 Y60.776 F9000
G1 F1200
G1 X61.016 Y59.955 E.03746
G1 X62.066 Y59.316 E.03854
G1 X63.227 Y58.917 E.03848
G1 X64.43 Y58.772 E.03799
G1 X166.594 Y58.773 E3.20329
G1 X167.784 Y58.919 E.0376
G1 X168.942 Y59.32 E.03842
G1 X169.989 Y59.959 E.03845
G1 X170.854 Y60.778 E.03735
G1 X171.743 Y62.192 E.05237
G1 X172.095 Y63.281 E.03587
G1 X172.228 Y64.431 E.03631
G1 X172.228 Y166.569 E3.20245
G1 X172.095 Y167.719 E.03631
G1 X171.743 Y168.808 E.03588
G1 X170.852 Y170.224 E.05246
G1 X169.984 Y171.045 E.03746
G1 X168.934 Y171.684 E.03854
G1 X167.773 Y172.083 E.03848
G1 X166.57 Y172.228 E.03799
G1 X64.431 Y172.228 E3.2025
G1 X63.281 Y172.095 E.03631
G1 X62.192 Y171.743 E.03588
G1 X60.776 Y170.852 E.05246
G1 X59.955 Y169.984 E.03746
G1 X59.316 Y168.934 E.03854
G1 X58.917 Y167.773 E.03848
G1 X58.772 Y166.57 E.03799
G1 X58.772 Y64.431 E3.2025
G1 X58.905 Y63.281 E.03631
G1 X59.257 Y62.192 E.03588
G1 X60.116 Y60.827 E.05058
G1 X60.425 Y61.032 F9000
G1 F1200
G1 X61.231 Y60.266 E.03487
G1 X62.21 Y59.665 E.03601
G1 X63.293 Y59.289 E.03594
G1 X64.441 Y59.149 E.03628
G1 X166.582 Y59.15 E3.20256
G1 X167.718 Y59.291 E.03587
G1 X168.798 Y59.669 E.03589
G1 X169.774 Y60.27 E.03593
G1 X170.577 Y61.035 E.03477
G1 X171.391 Y62.331 E.048
G1 X171.731 Y63.379 E.03454
G1 X171.851 Y64.442 E.03354
G1 X171.851 Y166.558 E3.2018
G1 X171.731 Y167.621 E.03354
G1 X171.391 Y168.669 E.03454
G1 X170.575 Y169.968 E.04808
G1 X169.769 Y170.734 E.03487
G1 X168.79 Y171.335 E.03601
G1 X167.707 Y171.711 E.03594
G1 X166.559 Y171.851 E.03627
G1 X64.442 Y171.851 E3.20182
G1 X63.379 Y171.731 E.03354
G1 X62.331 Y171.391 E.03454
G1 X61.032 Y170.575 E.04808
G1 X60.266 Y169.769 E.03487
G1 X59.665 Y168.79 E.03601
G1 X59.289 Y167.707 E.03594
G1 X59.149 Y166.559 E.03627
G1 X59.149 Y64.442 E3.20182
G1 X59.269 Y63.379 E.03354
G1 X59.609 Y62.331 E.03454
G1 X60.393 Y61.083 E.0462
G1 X60.702 Y61.289 F9000
G1 F1200
G1 X61.476 Y60.553 E.03349
G1 X62.388 Y59.998 E.03347
G1 X63.396 Y59.652 E.03341
G1 X64.452 Y59.526 E.03336
G1 X166.571 Y59.527 E3.20187
G1 X167.614 Y59.654 E.03293
G1 X168.62 Y60.002 E.03337
G1 X169.529 Y60.557 E.0334
G1 X170.3 Y61.291 E.03339
G1 X171.04 Y62.47 E.04365
G1 X171.358 Y63.441 E.03202
G1 X171.474 Y64.452 E.03192
G1 X171.474 Y166.548 E3.20112
G1 X171.358 Y167.559 E.03192
G1 X171.04 Y168.53 E.03203
G1 X170.298 Y169.711 E.04373
G1 X169.524 Y170.447 E.03349
G1 X168.612 Y171.002 E.03347
G1 X167.604 Y171.348 E.03341
G1 X166.548 Y171.474 E.03335
G1 X64.452 Y171.474 E3.20113
G1 X63.441 Y171.358 E.03192
G1 X62.47 Y171.04 E.03203
G1 X61.289 Y170.298 E.04373
G1 X60.553 Y169.524 E.03349
G1 X59.998 Y168.612 E.03347
G1 X59.652 Y167.604 E.03341
G1 X59.526 Y166.548 E.03335
G1 X59.526 Y64.452 E3.20114
G1 X59.642 Y63.441 E.03192
G1 X59.96 Y62.47 E.03203
G1 X60.67 Y61.34 E.04185
G1 X60.98 Y61.545 F9000
G1 F1200
G1 X61.691 Y60.863 E.03088
G1 X62.532 Y60.347 E.03094
G1 X63.461 Y60.024 E.03086
G1 X64.463 Y59.903 E.03165
G1 X166.559 Y59.904 E3.20115
G1 X167.547 Y60.026 E.0312
G1 X168.475 Y60.351 E.03083
G1 X169.313 Y60.867 E.03087
G1 X170.022 Y61.547 E.03079
G1 X170.69 Y62.611 E.03939
G1 X170.986 Y63.504 E.0295
G1 X171.097 Y64.463 E.03028
G1 X171.097 Y166.537 E3.20043
G1 X170.986 Y167.496 E.03028
G1 X170.69 Y168.389 E.0295
G1 X170.02 Y169.455 E.03947
G1 X169.309 Y170.137 E.03088
G1 X168.468 Y170.653 E.03094
G1 X167.539 Y170.976 E.03086
G1 X166.537 Y171.097 E.03165
G1 X64.463 Y171.097 E3.20043
G1 X63.504 Y170.986 E.03028
G1 X62.611 Y170.69 E.0295
G1 X61.545 Y170.02 E.03947
G1 X60.863 Y169.309 E.03088
G1 X60.347 Y168.468 E.03094
G1 X60.024 Y167.539 E.03086
G1 X59.903 Y166.537 E.03164
G1 X59.903 Y64.463 E3.20043
G1 X60.014 Y63.504 E.03028
G1 X60.31 Y62.611 E.0295
G1 X60.948 Y61.596 E.03759
G1 X61.259 Y61.8 F9000
G1 F1200
G1 X61.906 Y61.174 E.02824
G1 X62.711 Y60.68 E.02961
G1 X63.564 Y60.387 E.02828
G1 X64.474 Y60.28 E.02873
G1 X166.548 Y60.281 E3.20047
G1 X167.444 Y60.389 E.02827
G1 X168.295 Y60.683 E.02825
G1 X169.098 Y61.177 E.02955
G1 X169.743 Y61.802 E.02815
G1 X170.339 Y62.751 E.03516
G1 X170.622 Y63.604 E.02816
G1 X170.72 Y64.474 E.02745
G1 X170.72 Y166.526 E3.19979
G1 X170.622 Y167.396 E.02745
G1 X170.339 Y168.249 E.02816
G1 X169.741 Y169.2 E.03523
G1 X169.094 Y169.826 E.02824
G1 X168.289 Y170.32 E.02961
G1 X167.436 Y170.613 E.02828
G1 X166.526 Y170.72 E.02873
G1 X64.474 Y170.72 E3.19978
G1 X63.604 Y170.622 E.02745
G1 X62.751 Y170.339 E.02816
G1 X61.8 Y169.741 E.03523
G1 X61.174 Y169.094 E.02824
G1 X60.68 Y168.289 E.02961
G1 X60.387 Y167.436 E.02828
G1 X60.28 Y166.526 E.02873
G1 X60.28 Y64.474 E3.19978
G1 X60.378 Y63.604 E.02745
G1 X60.661 Y62.751 E.02816
G1 X61.227 Y61.851 E.03335
G1 X61.538 Y62.054 F9000
G1 F1200
G1 X62.123 Y61.483 E.02562
G1 X62.854 Y61.03 E.02697
G1 X63.667 Y60.75 E.02695
G1 X64.484 Y60.657 E.0258
G1 X166.537 Y60.658 E3.19978
G1 X167.378 Y60.76 E.02655
G1 X168.15 Y61.031 E.02567
G1 X168.881 Y61.486 E.02697
G1 X169.463 Y62.055 E.02554
G1 X169.989 Y62.893 E.03102
G1 X170.25 Y63.667 E.0256
G1 X170.343 Y64.484 E.0258
G1 X170.343 Y166.516 E3.19911
G1 X170.25 Y167.333 E.0258
G1 X169.989 Y168.107 E.0256
G1 X169.462 Y168.946 E.03108
G1 X168.877 Y169.517 E.02562
G1 X168.146 Y169.97 E.02697
G1 X167.333 Y170.25 E.02695
G1 X166.516 Y170.343 E.0258
G1 X64.484 Y170.343 E3.19911
G1 X63.667 Y170.25 E.0258
G1 X62.893 Y169.989 E.0256
G1 X62.054 Y169.462 E.03108
G1 X61.483 Y168.877 E.02562
G1 X61.03 Y168.146 E.02697
G1 X60.75 Y167.333 E.02695
G1 X60.657 Y166.516 E.0258
G1 X60.657 Y64.484 E3.19911
G1 X60.75 Y63.667 E.0258
G1 X61.011 Y62.893 E.0256
G1 X61.507 Y62.105 E.0292
G1 X61.819 Y62.306 F9000
G1 F1200
G1 X62.342 Y61.791 E.02302
G1 X62.999 Y61.378 E.02434
G1 X63.731 Y61.122 E.02432
G1 X64.495 Y61.034 E.02412
G1 X166.526 Y61.036 E3.1991
G1 X167.273 Y61.123 E.02357
G1 X168.005 Y61.38 E.02433
G1 X168.662 Y61.793 E.02432
G1 X169.182 Y62.308 E.02295
G1 X169.64 Y63.036 E.02698
G1 X169.877 Y63.731 E.02301
G1 X169.966 Y64.495 E.02413
G1 X169.966 Y166.505 E3.19842
G1 X169.877 Y167.269 E.02413
G1 X169.64 Y167.964 E.02301
G1 X169.181 Y168.694 E.02703
G1 X168.658 Y169.209 E.02302
G1 X168.001 Y169.622 E.02434
G1 X167.269 Y169.878 E.02432
G1 X166.505 Y169.966 E.02412
G1 X64.495 Y169.966 E3.19842
G1 X63.731 Y169.877 E.02413
G1 X63.036 Y169.64 E.02301
G1 X62.306 Y169.181 E.02703
G1 X61.791 Y168.658 E.02302
G1 X61.378 Y168.001 E.02434
G1 X61.122 Y167.269 E.02432
G1 X61.034 Y166.505 E.02412
G1 X61.034 Y64.495 E3.19842
G1 X61.123 Y63.731 E.02413
G1 X61.36 Y63.036 E.02301
G1 X61.787 Y62.357 E.02515
G1 X62.1 Y62.559 F9000
G1 F1200
G1 X62.591 Y62.074 E.02165
G1 X63.179 Y61.71 E.02167
G1 X63.833 Y61.486 E.02169
G1 X64.505 Y61.411 E.02121
G1 X166.515 Y61.413 E3.19843
G1 X167.206 Y61.495 E.02183
G1 X167.857 Y61.728 E.02167
G1 X168.441 Y62.099 E.02169
G1 X168.9 Y62.559 E.02037
G1 X169.29 Y63.179 E.02297
G1 X169.514 Y63.833 E.02167
G1 X169.589 Y64.505 E.02121
G1 X169.589 Y166.495 E3.1978
G1 X169.514 Y167.167 E.02121
G1 X169.29 Y167.821 E.02167
G1 X168.9 Y168.441 E.02295
G1 X168.409 Y168.926 E.02165
G1 X167.821 Y169.29 E.02167
G1 X167.167 Y169.514 E.02169
G1 X166.495 Y169.589 E.02121
G1 X64.505 Y169.589 E3.1978
G1 X63.833 Y169.514 E.02121
G1 X63.179 Y169.29 E.02167
G1 X62.559 Y168.9 E.02295
G1 X62.074 Y168.409 E.02165
G1 X61.71 Y167.821 E.02167
G1 X61.486 Y167.167 E.02169
G1 X61.411 Y166.495 E.02121
G1 X61.411 Y64.505 E3.1978
G1 X61.486 Y63.833 E.02121
G1 X61.71 Y63.179 E.02167
G1 X62.068 Y62.61 E.02107
G1 X62.992 Y63.297 F9000
;TYPE:Perimeter
;WIDTH:0.419999
G1 F1200
G1 X63.297 Y62.992 E.01354
G1 X63.663 Y62.762 E.01354
G1 X64.071 Y62.619 E.01355
G1 X64.56 Y62.564 E.01543
G1 X166.321 Y62.564 E3.19066
G1 X166.929 Y62.619 E.01913
G1 X167.337 Y62.762 E.01354
G1 X167.703 Y62.992 E.01354
G1 X168.008 Y63.297 E.01354
G1 X168.238 Y63.663 E.01354
G1 X168.381 Y64.071 E.01354
G1 X168.436 Y64.679 E.01913
G1 X168.436 Y166.321 E3.18694
G1 X168.381 Y166.929 E.01913
G1 X168.238 Y167.337 E.01354
G1 X168.008 Y167.703 E.01354
G1 X167.703 Y168.008 E.01354
G1 X167.337 Y168.238 E.01354
G1 X166.929 Y168.381 E.01354
G1 X166.44 Y168.436 E.01543
G1 X64.678 Y168.436 E3.19066
G1 X64.071 Y168.381 E.01913
G1 X63.663 Y168.238 E.01354
G1 X63.297 Y168.008 E.01354
G1 X62.992 Y167.703 E.01354
G1 X62.762 Y167.337 E.01354
G1 X62.619 Y166.929 E.01354
G1 X62.564 Y166.44 E.01543
G1 X62.564 Y64.679 E3.19066
G1 X62.619 Y64.071 E.01913
G1 X62.762 Y63.663 E.01354
G1 X62.96 Y63.348 E.01166
G1 X62.695 Y63.061 F9000
G1 F1200
G1 X63.061 Y62.695 E.01621
G1 X63.498 Y62.42 E.01621
G1 X63.986 Y62.249 E.01621
G1 X64.539 Y62.187 E.01743
G1 X166.461 Y62.187 E3.19571
G1 X167.014 Y62.249 E.01743
G1 X167.502 Y62.42 E.01621
G1 X167.939 Y62.695 E.01621
G1 X168.305 Y63.061 E.01621
G1 X168.58 Y63.498 E.01621
G1 X168.751 Y63.986 E.01621
G1 X168.813 Y64.679 E.02179
