; generated by PrusaSlicer 2.5.0+win64 on 2023-05-30 at 13:28:42 UTC

; 

; external perimeters extrusion width = 0.42mm
; perimeters extrusion width = 0.44mm
; infill extrusion width = 0.44mm
; solid infill extrusion width = 0.44mm
; top infill extrusion width = 0.40mm
; support material extrusion width = 0.36mm
; first layer extrusion width = 0.42mm

M107
;TYPE:Custom
G90 ; use absolute coordinates
M83 ; extruder relative mode
M140 S60 ; set final bed temp
M104 S150 ; set temporary nozzle temp to prevent oozing during homing
G4 S10 ; allow partial nozzle warmup
G28 ; home all axis
G1 Z50 F240
G1 X2 Y10 F3000
M104 S210 ; set final nozzle temp
M190 S60 ; wait for bed temp to stabilize
M109 S210 ; wait for nozzle temp to stabilize
G1 Z0.28 F240
G92 E0
G1 Y140 E10 F1500 ; prime the nozzle
G1 X2.3 F5000
G92 E0
G1 Y10 E10 F1200 ; prime the nozzle
G92 E0
G21 ; set units to millimeters
G90 ; use absolute coordinates
M83 ; use relative distances for extrusion
; Filament gcode
M107
;LAYER_CHANGE
;Z:0.2
;HEIGHT:0.2
;BEFORE_LAYER_CHANGE
G92 E0
;0.2


G1 E-5 F3600
G1 Z.2 F9000
;AFTER_LAYER_CHANGE
;0.2
G1 X59.141 Y78.712
G1 E5 F2400
M204 S500
;TYPE:Skirt/Brim
;WIDTH:0.42
G1 F1200
G1 X60.539 Y77.871 E.05115
G1 X61.529 Y77.723 E.03138
G1 X169.471 Y77.723 E3.38445
G1 X171.054 Y78.117 E.05115
G1 X171.859 Y78.712 E.03138
G1 X174.788 Y81.641 E.12987
G1 X175.629 Y83.039 E.05115
G1 X175.777 Y84.029 E.03138
G1 X175.777 Y146.971 E1.97351
G1 X175.383 Y148.554 E.05115
G1 X174.788 Y149.359 E.03138
G1 X171.859 Y152.288 E.12987
G1 X170.461 Y153.129 E.05115
G1 X169.471 Y153.277 E.03138
G1 X61.529 Y153.277 E3.38445
G1 X59.946 Y152.883 E.05115
G1 X59.141 Y152.288 E.03138
G1 X56.212 Y149.359 E.12987
G1 X55.371 Y147.961 E.05115
G1 X55.223 Y146.971 E.03138
G1 X55.223 Y84.029 E1.97351
G1 X55.617 Y82.446 E.05115
G1 X56.212 Y81.641 E.03138
G1 X59.099 Y78.754 E.12799
G1 E-3.5 F3600
;WIPE_START
G1 F7200
G1 X60.539 Y77.871 E-.80263
G1 X61.529 Y77.723 E-.47543
G1 X61.838 Y77.723 E-.14695
;WIPE_END
G1 E-.075 F3600
G1 X61.13 Y82.035 F9000
G1 E5 F2400
G1 F1200
G1 X63.053 Y81.387 E.06363
G1 X167.886 Y81.39 E3.28697
G1 X168.835 Y81.574 E.03029
G1 X169.743 Y81.965 E.03101
G1 X170.962 Y82.988 E.0499
G1 X171.753 Y84.206 E.04551
G1 X172.113 Y85.589 E.04481
G1 X172.113 Y145.41 E1.87565
G1 X171.815 Y146.633 E.03947
G1 X171.406 Y147.449 E.02862
G1 X170.508 Y148.461 E.04242
G1 X169.87 Y148.965 E.0255
G1 X167.947 Y149.613 E.06363
G1 X63.09 Y149.613 E3.2877
G1 X61.867 Y149.315 E.03947
G1 X61.051 Y148.906 E.02862
G1 X60.039 Y148.008 E.04242
G1 X59.535 Y147.37 E.0255
G1 X58.887 Y145.447 E.06363
G1 X58.887 Y85.59 E1.87676
G1 X59.185 Y84.367 E.03947
G1 X59.594 Y83.551 E.02862
G1 X60.492 Y82.539 E.04242
G1 X61.083 Y82.073 E.02362
G1 X61.316 Y82.369 F9000
G1 F1200
G1 X63.084 Y81.764 E.0586
G1 X167.867 Y81.767 E3.28542
G1 X168.741 Y81.94 E.02791
G1 X169.566 Y82.299 E.02823
G1 X170.697 Y83.258 E.04647
G1 X171.396 Y84.332 E.04018
G1 X171.736 Y85.613 E.04157
G1 X171.736 Y145.386 E1.87413
G1 X171.455 Y146.52 E.03664
G1 X171.082 Y147.256 E.02585
G1 X170.239 Y148.196 E.0396
G1 X169.663 Y148.648 E.02295
G1 X167.916 Y149.236 E.05778
G1 X63.114 Y149.236 E3.28601
G1 X61.98 Y148.955 E.03664
G1 X61.244 Y148.582 E.02585
G1 X60.304 Y147.739 E.0396
G1 X59.852 Y147.163 E.02295
G1 X59.264 Y145.416 E.05778
G1 X59.264 Y85.614 E1.87506
G1 X59.545 Y84.48 E.03664
G1 X59.918 Y83.744 E.02585
G1 X60.761 Y82.804 E.0396
G1 X61.268 Y82.406 E.02021
G1 X61.5 Y82.703 F9000
G1 F1200
G1 X61.543 Y82.669 E.00173
G1 X63.115 Y82.141 E.05197
G1 X167.848 Y82.144 E3.28385
G1 X168.646 Y82.305 E.0255
G1 X169.388 Y82.633 E.02545
G1 X170.43 Y83.526 E.04302
G1 X171.063 Y84.51 E.03669
G1 X171.359 Y85.638 E.03655
G1 X171.359 Y145.362 E1.87263
G1 X171.095 Y146.406 E.03376
G1 X170.758 Y147.06 E.02308
G1 X169.971 Y147.93 E.03679
G1 X169.457 Y148.331 E.02043
G1 X167.886 Y148.859 E.05197
G1 X63.138 Y148.859 E3.2843
G1 X62.094 Y148.595 E.03376
G1 X61.44 Y148.258 E.02308
G1 X60.57 Y147.471 E.03679
G1 X60.169 Y146.957 E.02043
G1 X59.641 Y145.386 E.05197
G1 X59.641 Y85.638 E1.87335
G1 X59.905 Y84.594 E.03376
G1 X60.242 Y83.94 E.02308
G1 X61.029 Y83.07 E.03679
G1 X61.453 Y82.74 E.01682
G1 X61.683 Y83.038 F9000
G1 F1200
G1 X61.749 Y82.987 E.00262
G1 X63.145 Y82.518 E.04619
G1 X167.829 Y82.521 E3.28228
G1 X168.548 Y82.67 E.02304
G1 X169.208 Y82.965 E.02266
G1 X170.162 Y83.792 E.0396
G1 X170.706 Y84.637 E.03149
G1 X170.982 Y85.663 E.03331
G1 X170.982 Y145.338 E1.87107
G1 X170.735 Y146.289 E.03082
G1 X170.436 Y146.863 E.0203
G1 X169.704 Y147.663 E.03399
G1 X169.251 Y148.013 E.01793
G1 X167.855 Y148.482 E.04619
G1 X63.162 Y148.482 E3.28257
G1 X62.211 Y148.235 E.03082
G1 X61.637 Y147.936 E.0203
G1 X60.837 Y147.204 E.03399
G1 X60.487 Y146.751 E.01793
G1 X60.018 Y145.355 E.04619
G1 X60.018 Y85.662 E1.87163
G1 X60.265 Y84.711 E.03082
G1 X60.564 Y84.137 E.0203
G1 X61.296 Y83.337 E.03399
G1 X61.635 Y83.075 E.01344
G1 X61.864 Y83.374 F9000
G1 F1200
G1 X61.953 Y83.306 E.00351
G1 X63.176 Y82.895 E.04045
G1 X167.81 Y82.898 E3.28072
G1 X168.413 Y83.023 E.01933
G1 X169.028 Y83.297 E.0211
G1 X169.892 Y84.057 E.03609
G1 X170.372 Y84.814 E.02809
G1 X170.605 Y85.687 E.02835
G1 X170.605 Y145.313 E1.86952
G1 X170.377 Y146.171 E.02783
G1 X170.115 Y146.664 E.01752
G1 X169.439 Y147.395 E.03121
G1 X169.047 Y147.694 E.01546
G1 X167.824 Y148.105 E.04045
G1 X63.187 Y148.105 E3.28082
G1 X62.329 Y147.877 E.02783
G1 X61.836 Y147.615 E.01752
G1 X61.105 Y146.939 E.03121
G1 X60.806 Y146.547 E.01546
G1 X60.395 Y145.324 E.04045
G1 X60.395 Y85.687 E1.86988
G1 X60.623 Y84.829 E.02783
G1 X60.885 Y84.336 E.01752
G1 X61.561 Y83.605 E.03121
G1 X61.816 Y83.41 E.01007
G1 X62.043 Y83.71 F9000
G1 F1200
G1 X62.155 Y83.625 E.00442
G1 X63.206 Y83.272 E.03476
G1 X167.789 Y83.276 E3.27912
G1 X168.314 Y83.387 E.01682
G1 X168.845 Y83.628 E.01829
G1 X169.622 Y84.321 E.03263
G1 X170.016 Y84.941 E.02306
G1 X170.228 Y85.713 E.0251
G1 X170.228 Y145.287 E1.86789
G1 X170.02 Y146.049 E.02477
G1 X169.796 Y146.462 E.01474
G1 X169.175 Y147.125 E.02845
G1 X168.845 Y147.375 E.01301
G1 X167.794 Y147.728 E.03476
G1 X63.213 Y147.728 E3.27905
G1 X62.451 Y147.52 E.02477
G1 X62.038 Y147.296 E.01474
G1 X61.375 Y146.675 E.02845
G1 X61.125 Y146.345 E.01301
G1 X60.772 Y145.294 E.03476
G1 X60.772 Y85.713 E1.86811
G1 X60.98 Y84.951 E.02477
G1 X61.204 Y84.538 E.01474
G1 X61.825 Y83.875 E.02845
G1 X61.995 Y83.746 E.00671
G1 X62.22 Y84.047 F9000
G1 F1200
G1 X62.357 Y83.945 E.00534
G1 X63.237 Y83.649 E.02912
G1 X167.768 Y83.653 E3.2775
G1 X168.211 Y83.75 E.01424
G1 X168.659 Y83.958 E.01548
G1 X169.35 Y84.583 E.0292
G1 X169.662 Y85.071 E.01818
G1 X169.851 Y85.74 E.02179
G1 X169.851 Y145.26 E1.8662
G1 X169.663 Y145.924 E.02162
G1 X169.478 Y146.257 E.01196
G1 X168.914 Y146.853 E.02573
G1 X168.643 Y147.055 E.01059
G1 X167.763 Y147.351 E.02912
G1 X63.24 Y147.351 E3.27725
G1 X62.576 Y147.163 E.02162
G1 X62.243 Y146.978 E.01196
G1 X61.647 Y146.414 E.02573
G1 X61.445 Y146.143 E.01059
G1 X61.149 Y145.263 E.02912
G1 X61.149 Y85.74 E1.8663
G1 X61.337 Y85.076 E.02162
G1 X61.522 Y84.743 E.01196
G1 X62.086 Y84.147 E.02573
G1 X62.172 Y84.083 E.00337
G1 X62.395 Y84.385 F9000
G1 F1200
G1 X62.556 Y84.266 E.00629
G1 X63.268 Y84.026 E.02355
G1 X167.746 Y84.03 E3.27583
G1 X168.105 Y84.113 E.01157
G1 X168.471 Y84.285 E.01268
G1 X169.076 Y84.843 E.0258
G1 X169.308 Y85.205 E.01347
G1 X169.474 Y85.768 E.01841
G1 X169.474 Y145.232 E1.86445
G1 X169.309 Y145.794 E.01838
G1 X169.163 Y146.049 E.00919
G1 X168.654 Y146.579 E.02305
G1 X168.444 Y146.734 E.00819
G1 X167.732 Y146.974 E.02355
G1 X63.268 Y146.974 E3.2754
G1 X62.706 Y146.809 E.01838
G1 X62.451 Y146.663 E.00919
G1 X61.921 Y146.154 E.02305
G1 X61.766 Y145.944 E.00819
G1 X61.526 Y145.232 E.02355
G1 X61.526 Y85.768 E1.86446
G1 X61.691 Y85.206 E.01838
G1 X61.837 Y84.951 E.00919
G1 X62.347 Y84.421 E.02307
G1 X62.604 Y84.697 F9000
G1 F1200
G1 X62.754 Y84.588 E.0058
G1 X63.299 Y84.403 E.01806
G1 X167.724 Y84.407 E3.27417
G1 X167.962 Y84.462 E.00767
G1 X168.282 Y84.613 E.01109
G1 X168.801 Y85.101 E.02233
G1 X168.956 Y85.342 E.00898
G1 X169.097 Y85.798 E.01495
G1 X169.097 Y145.202 E1.86259
G1 X168.956 Y145.659 E.015
G1 X168.851 Y145.836 E.00643
G1 X168.396 Y146.303 E.02044
G1 X168.246 Y146.412 E.0058
G1 X167.701 Y146.597 E.01806
G1 X63.298 Y146.597 E3.2735
G1 X62.841 Y146.456 E.015
G1 X62.664 Y146.351 E.00643
G1 X62.197 Y145.896 E.02044
G1 X62.088 Y145.746 E.0058
G1 X61.903 Y145.201 E.01806
G1 X61.903 Y85.798 E1.86255
G1 X62.044 Y85.341 E.015
G1 X62.149 Y85.164 E.00643
G1 X62.562 Y84.74 E.01856
G1 X62.83 Y85.004 F9000
G1 F1200
G1 X62.948 Y84.912 E.00471
G1 X63.331 Y84.78 E.0127
G1 X167.702 Y84.784 E3.27248
G1 X167.819 Y84.811 E.00377
G1 X168.092 Y84.94 E.00947
G1 X168.523 Y85.357 E.0188
G1 X168.607 Y85.485 E.00479
G1 X168.72 Y85.829 E.01136
G1 X168.72 Y145.171 E1.86061
G1 X168.606 Y145.517 E.01144
G1 X168.544 Y145.618 E.00371
G1 X168.141 Y146.025 E.01795
G1 X168.052 Y146.088 E.00343
G1 X167.669 Y146.22 E.0127
G1 X63.329 Y146.22 E3.2715
G1 X62.983 Y146.106 E.01144
G1 X62.882 Y146.044 E.00371
G1 X62.475 Y145.641 E.01795
G1 X62.412 Y145.552 E.00343
G1 X62.28 Y145.169 E.0127
G1 X62.28 Y85.829 E1.86056
G1 X62.394 Y85.483 E.01144
G1 X62.456 Y85.382 E.00371
G1 X62.787 Y85.047 E.01477
G1 X63.054 Y85.313 F9000
G1 F1200
G1 X63.137 Y85.239 E.00351
G1 X63.364 Y85.157 E.00757
G1 X167.65 Y85.157 E3.26979
G1 X167.9 Y85.267 E.00856
G1 X168.243 Y85.61 E.01522
G1 X168.343 Y85.864 E.00856
G1 X168.343 Y145.136 E1.85841
G1 X168.261 Y145.363 E.00757
G1 X167.89 Y145.743 E.01666
G1 X167.636 Y145.843 E.00856
G1 X63.364 Y145.843 E3.26935
G1 X63.137 Y145.761 E.00757
G1 X62.757 Y145.39 E.01666
G1 X62.657 Y145.136 E.00856
G1 X62.657 Y85.864 E1.85841
G1 X62.757 Y85.61 E.00856
G1 X63.011 Y85.356 E.01128
G1 X63.278 Y85.622 F9000
G1 F1200
G1 X63.337 Y85.563 E.00263
G1 X63.406 Y85.534 E.00235
G1 X167.594 Y85.534 E3.26672
G1 X167.663 Y85.563 E.00235
G1 X167.937 Y85.837 E.01215
G1 X167.966 Y85.906 E.00235
G1 X167.966 Y145.094 E1.85578
G1 X167.937 Y145.163 E.00235
G1 X167.663 Y145.437 E.01215
G1 X167.594 Y145.466 E.00235
G1 X63.406 Y145.466 E3.26672
G1 X63.337 Y145.437 E.00235
G1 X63.063 Y145.163 E.01215
G1 X63.034 Y145.094 E.00235
G1 X63.034 Y85.906 E1.85578
G1 X63.063 Y85.837 E.00235
G1 X63.235 Y85.665 E.00764
G1 X63.502 Y85.931 F9000
G1 F1200
G1 X63.522 Y85.911 E.00089
G1 X167.478 Y85.911 E3.25947
G1 X167.589 Y86.022 E.0049
G1 X167.589 Y144.978 E1.84853
G1 X167.478 Y145.089 E.0049
G1 X63.522 Y145.089 E3.25947
G1 X63.411 Y144.978 E.0049
G1 X63.411 Y86.022 E1.84853
G1 X63.459 Y85.974 E.00213
G1 X64.564 Y87.064 F9000
;TYPE:Perimeter
;WIDTH:0.419999
G1 F1200
G1 X166.436 Y87.064 E3.19411
G1 X166.436 Y143.936 E1.78317
G1 X64.564 Y143.936 E3.19411
G1 X64.564 Y87.124 E1.78129
G1 X64.187 Y86.687 F9000
G1 F1200
G1 X166.813 Y86.687 E3.21776
G1 X166.813 Y144.313 E1.80681
G1 X64.187 Y144.313 E3.21776
G1 X64.187 Y86.747 E1.80493
G1 X63.81 Y86.31 F9000
;TYPE:External perimeter
G1 F1200
G1 X167.19 Y86.31 E3.2414
G1 X167.19 Y144.69 E1.83046
G1 X63.81 Y144.69 E3.2414
G1 X63.81 Y86.37 E1.82858
G1 X64.204 Y86.378 F9000
G1 E-3.5 F3600
;WIPE_START
G1 F7200
G1 X66.81 Y86.368 E-1.425
;WIPE_END
G1 E-.075 F3600
G1 X78.467 Y105.226 F9000
G1 E5 F2400
;TYPE:Perimeter
G1 F1200
G1 X78.512 Y105.008 E.00698
G1 X78.707 Y104.717 E.01098
G1 X79.017 Y104.508 E.01172
G1 X79.379 Y104.436 E.01156
G1 X151.621 Y104.436 E2.26512
G1 X151.983 Y104.508 E.01156
G1 X152.293 Y104.717 E.01172
G1 X152.488 Y105.008 E.01098
G1 X152.564 Y105.379 E.01186
G1 X152.564 Y130.621 E.79147
G1 X152.494 Y130.979 E.01144
G1 X152.309 Y131.267 E.01072
G1 X152.011 Y131.48 E.01147
G1 X151.723 Y131.559 E.00936
G1 X151.621 Y131.564 E.00319
G1 X79.379 Y131.564 E2.26512
G1 X79.08 Y131.516 E.00947
G1 X78.754 Y131.328 E.01181
G1 X78.544 Y131.06 E.01068
G1 X78.44 Y130.714 E.01131
G1 X78.436 Y130.621 E.00291
G1 X78.436 Y105.379 E.79147
G1 X78.455 Y105.285 E.003
G1 X78.835 Y105.293 F9000
G1 F1200
G1 X78.883 Y105.107 E.00604
G1 X79.048 Y104.92 E.00783
G1 X79.289 Y104.82 E.00817
G1 X79.379 Y104.813 E.00282
G1 X151.621 Y104.813 E2.26512
G1 X151.878 Y104.874 E.00826
G1 X152.089 Y105.061 E.00885
G1 X152.184 Y105.321 E.00867
G1 X152.187 Y105.379 E.00181
G1 X152.187 Y130.621 E.79147
G1 X152.122 Y130.884 E.00849
G1 X151.954 Y131.079 E.00808
G1 X151.855 Y131.137 E.00357
G1 X151.621 Y131.187 E.0075
G1 X79.379 Y131.187 E2.26512
G1 X79.145 Y131.137 E.0075
G1 X78.933 Y130.97 E.00843
G1 X78.821 Y130.719 E.00862
G1 X78.813 Y130.621 E.00308
G1 X78.82 Y105.351 E.79233
G1 X79.19 Y105.379 F9000
;TYPE:External perimeter
G1 F1200
G1 X79.256 Y105.235 E.00495
G1 X79.379 Y105.19 E.00409
G1 X151.621 Y105.19 E2.26512
G1 X151.767 Y105.259 E.00505
G1 X151.81 Y105.379 E.00399
G1 X151.81 Y130.621 E.79147
G1 X151.746 Y130.763 E.00486
G1 X151.621 Y130.81 E.00419
G1 X79.379 Y130.81 E2.26512
G1 X79.241 Y130.751 E.00469
G1 X79.19 Y130.621 E.00435
G1 X79.19 Y105.439 E.78959
G1 X79.081 Y105.264 F9000
G1 E-3.5 F3600
;WIPE_START
G1 F7200
G1 X79.256 Y105.235 E-.10157
G1 X79.379 Y105.19 E-.062
G1 X82.034 Y105.19 E-1.26143
;WIPE_END
G1 E-.075 F3600
G1 X165.55 Y87.185 F9000
G1 E5 F2400
;TYPE:Solid infill
;WIDTH:0.421165
G1 F1200
G1 X166.146 Y87.78 E.02647
G1 X166.146 Y88.315 E.01682
G1 X165.185 Y87.354 E.04271
G1 X164.65 Y87.354 E.01682
G1 X166.146 Y88.85 E.0665
G1 X166.146 Y89.385 E.01682
G1 X164.115 Y87.354 E.0903
G1 X163.58 Y87.354 E.01682
G1 X166.146 Y89.92 E.11409
G1 X166.146 Y90.454 E.01682
G1 X163.046 Y87.354 E.13788
G1 X162.511 Y87.354 E.01682
G1 X166.146 Y90.989 E.16168
G1 X166.146 Y91.524 E.01682
G1 X161.976 Y87.354 E.18547
G1 X161.441 Y87.354 E.01682
G1 X166.146 Y92.059 E.20926
G1 X166.146 Y92.594 E.01682
G1 X160.906 Y87.354 E.23305
G1 X160.371 Y87.354 E.01682
G1 X166.146 Y93.129 E.25685
G1 X166.146 Y93.664 E.01682
G1 X159.836 Y87.354 E.28064
G1 X159.301 Y87.354 E.01682
G1 X166.146 Y94.199 E.30443
G1 X166.146 Y94.734 E.01682
G1 X158.766 Y87.354 E.32822
G1 X158.231 Y87.354 E.01682
G1 X166.146 Y95.269 E.35202
G1 X166.146 Y95.804 E.01682
G1 X157.696 Y87.354 E.37581
G1 X157.161 Y87.354 E.01682
G1 X166.146 Y96.339 E.3996
G1 X166.146 Y96.873 E.01682
G1 X156.627 Y87.354 E.42339
G1 X156.092 Y87.354 E.01682
G1 X166.146 Y97.408 E.44719
G1 X166.146 Y97.943 E.01682
G1 X155.557 Y87.354 E.47098
G1 X155.022 Y87.354 E.01682
G1 X166.146 Y98.478 E.49477
G1 X166.146 Y99.013 E.01682
G1 X154.487 Y87.354 E.51856
G1 X153.952 Y87.354 E.01682
G1 X166.146 Y99.548 E.54236
G1 X166.146 Y100.083 E.01682
G1 X153.417 Y87.354 E.56615
G1 X152.882 Y87.354 E.01682
G1 X166.146 Y100.618 E.58994
G1 X166.146 Y101.153 E.01682
G1 X152.347 Y87.354 E.61373
G1 X151.812 Y87.354 E.01682
G1 X166.146 Y101.688 E.63753
G1 X166.146 Y102.223 E.01682
G1 X151.277 Y87.354 E.66132
G1 X150.742 Y87.354 E.01682
G1 X166.146 Y102.758 E.68511
G1 X166.146 Y103.293 E.01682
G1 X150.207 Y87.354 E.7089
G1 X149.673 Y87.354 E.01682
G1 X166.146 Y103.827 E.7327
G1 X166.146 Y104.362 E.01682
G1 X149.138 Y87.354 E.75649
G1 X148.603 Y87.354 E.01682
G1 X166.146 Y104.897 E.78028
G1 X166.146 Y105.432 E.01682
G1 X148.068 Y87.354 E.80407
G1 X147.533 Y87.354 E.01682
G1 X166.146 Y105.967 E.82787
G1 X166.146 Y106.502 E.01682
G1 X146.998 Y87.354 E.85166
G1 X146.463 Y87.354 E.01682
G1 X166.146 Y107.037 E.87545
G1 X166.146 Y107.572 E.01682
G1 X145.928 Y87.354 E.89924
G1 X145.393 Y87.354 E.01682
G1 X166.146 Y108.107 E.92304
G1 X166.146 Y108.642 E.01682
G1 X144.858 Y87.354 E.94683
G1 X144.323 Y87.354 E.01682
G1 X166.146 Y109.177 E.97062
G1 X166.146 Y109.712 E.01682
G1 X143.788 Y87.354 E.99441
G1 X143.254 Y87.354 E.01682
G1 X166.146 Y110.246 E1.01821
G1 X166.146 Y110.781 E.01682
G1 X142.719 Y87.354 E1.042
G1 X142.184 Y87.354 E.01682
G1 X166.146 Y111.316 E1.06579
G1 X166.146 Y111.851 E.01682
G1 X141.649 Y87.354 E1.08958
G1 X141.114 Y87.354 E.01682
G1 X166.146 Y112.386 E1.11338
G1 X166.146 Y112.921 E.01682
G1 X140.579 Y87.354 E1.13717
G1 X140.044 Y87.354 E.01682
G1 X166.146 Y113.456 E1.16096
G1 X166.146 Y113.991 E.01682
G1 X139.509 Y87.354 E1.18475
G1 X138.974 Y87.354 E.01682
G1 X166.146 Y114.526 E1.20855
G1 X166.146 Y115.061 E.01682
G1 X138.439 Y87.354 E1.23234
G1 X137.904 Y87.354 E.01682
