; generated by PrusaSlicer 2.5.0+win64 on 2023-11-17 at 19:34:11 UTC

; 

; external perimeters extrusion width = 0.42mm
; perimeters extrusion width = 0.44mm
; infill extrusion width = 0.44mm
; solid infill extrusion width = 0.44mm
; top infill extrusion width = 0.40mm
; support material extrusion width = 0.36mm
; first layer extrusion width = 0.42mm

M201 X500 Y500 Z100 E5000 ; sets maximum accelerations, mm/sec^2
M203 X500 Y500 Z10 E60 ; sets maximum feedrates, mm / sec
M204 P500 R1000 T500 ; sets acceleration (P, T) and retract acceleration (R), mm/sec^2
M205 X8.00 Y8.00 Z0.40 E5.00 ; sets the jerk limits, mm/sec
M205 S0 T0 ; sets the minimum extruding and travel feed rate, mm/sec
M107
;TYPE:Custom
G90 ; use absolute coordinates
M83 ; extruder relative mode
M104 S150 ; set temporary nozzle temp to prevent oozing during homing
M140 S60 ; set final bed temp
G4 S30 ; allow partial nozzle warmup
G28 ; home all axis
G1 Z50 F240
G1 X2.0 Y10 F3000
M104 S210 ; set final nozzle temp
M190 S60 ; wait for bed temp to stabilize
M109 S210 ; wait for nozzle temp to stabilize
G1 Z0.28 F240
G92 E0
G1 X2.0 Y140 E10 F1500 ; prime the nozzle
G1 X2.3 Y140 F5000
G92 E0
G1 X2.3 Y10 E10 F1200 ; prime the nozzle
G92 E0
G21 ; set units to millimeters
G90 ; use absolute coordinates
M83 ; use relative distances for extrusion
; Filament gcode
M107
;LAYER_CHANGE
;Z:0.2
;HEIGHT:0.2
;BEFORE_LAYER_CHANGE
G92 E0
;0.2


G1 E-5 F3600
G1 Z.2 F9000
;AFTER_LAYER_CHANGE
;0.2
G1 X73.851 Y86.064
G1 E5 F2400
M204 S500
;TYPE:Skirt/Brim
;WIDTH:0.42
G1 F1200
G1 X74.661 Y85.443 E.032
G1 X75.992 Y84.674 E.04819
G1 X77.353 Y84.142 E.04583
G1 X78.42 Y83.886 E.03438
G1 X80.043 Y83.723 E.05116
G1 X151.178 Y83.73 E2.23039
G1 X153.014 Y83.972 E.05806
G1 X154.065 Y84.284 E.03438
G1 X155.008 Y84.674 E.032
G1 X156.339 Y85.443 E.04819
G1 X157.481 Y86.355 E.04583
G1 X158.236 Y87.151 E.03438
G1 X158.857 Y87.961 E.032
G1 X159.626 Y89.292 E.04819
G1 X160.016 Y90.235 E.032
G1 X160.328 Y91.286 E.03438
G1 X160.548 Y92.795 E.04782
G1 X160.548 Y138.205 E1.42378
G1 X160.414 Y139.28 E.03399
G1 X160.158 Y140.347 E.03438
G1 X159.43 Y142.104 E.05964
G1 X158.857 Y143.039 E.03438
G1 X157.945 Y144.181 E.04583
G1 X157.149 Y144.936 E.03438
G1 X156.339 Y145.557 E.032
G1 X155.008 Y146.326 E.04819
G1 X153.647 Y146.858 E.04583
G1 X152.58 Y147.114 E.03438
G1 X150.957 Y147.277 E.05115
G1 X80.043 Y147.277 E2.22347
G1 X77.986 Y147.028 E.06495
G1 X76.935 Y146.716 E.03438
G1 X75.596 Y146.13 E.04583
G1 X74.661 Y145.557 E.03438
G1 X73.519 Y144.645 E.04583
G1 X72.764 Y143.849 E.03438
G1 X72.143 Y143.039 E.032
G1 X71.374 Y141.708 E.04819
G1 X70.842 Y140.347 E.04583
G1 X70.586 Y139.28 E.03438
G1 X70.43 Y137.878 E.04424
G1 X70.43 Y93.122 E1.40329
G1 X70.586 Y91.72 E.04424
G1 X70.842 Y90.653 E.03438
G1 X71.57 Y88.896 E.05964
G1 X72.143 Y87.961 E.03438
G1 X73.055 Y86.819 E.04583
G1 X73.808 Y86.105 E.0325
G1 E-3.5 F3600
;WIPE_START
G1 F7200
G1 X74.661 Y85.443 E-.51318
G1 X75.992 Y84.674 E-.73009
G1 X76.348 Y84.535 E-.18173
;WIPE_END
G1 E-.075 F3600
G1 X76.268 Y88.873 F9000
G1 E5 F2400
G1 F1200
G1 X76.712 Y88.479 E.01861
G1 X78.287 Y87.695 E.05517
G1 X80.027 Y87.387 E.05542
G1 X150.974 Y87.388 E2.22448
G1 X152.231 Y87.558 E.03979
G1 X153.466 Y87.994 E.04106
G1 X155.15 Y89.208 E.06508
G1 X156.31 Y90.845 E.06291
G1 X156.745 Y92.083 E.04113
G1 X156.913 Y93.355 E.04024
G1 X156.913 Y137.65 E1.38883
G1 X156.711 Y139.053 E.04444
G1 X156.188 Y140.387 E.04493
G1 X155.365 Y141.564 E.04505
G1 X154.288 Y142.521 E.04515
G1 X152.713 Y143.305 E.05517
G1 X150.973 Y143.613 E.05542
G1 X80.05 Y143.613 E2.22374
G1 X78.647 Y143.411 E.04444
G1 X77.313 Y142.888 E.04493
G1 X76.136 Y142.065 E.04505
G1 X75.179 Y140.989 E.04515
G1 X74.395 Y139.413 E.05517
G1 X74.087 Y137.673 E.05542
G1 X74.087 Y93.35 E1.38971
G1 X74.289 Y91.947 E.04444
G1 X74.812 Y90.613 E.04493
G1 X75.635 Y89.436 E.04505
G1 X76.223 Y88.913 E.02467
G1 X76.471 Y89.194 F9000
G1 F1200
G1 X76.942 Y88.778 E.01971
G1 X78.38 Y88.062 E.05037
G1 X80.044 Y87.764 E.053
G1 X150.961 Y87.765 E2.22354
G1 X152.161 Y87.929 E.03797
G1 X153.314 Y88.341 E.03841
G1 X154.861 Y89.453 E.05975
G1 X155.964 Y90.997 E.05948
G1 X156.374 Y92.152 E.03846
G1 X156.536 Y93.368 E.03844
G1 X156.536 Y137.636 E1.38801
G1 X156.342 Y138.976 E.04247
G1 X155.846 Y140.226 E.04216
G1 X155.07 Y141.329 E.04227
G1 X154.058 Y142.222 E.04232
G1 X152.62 Y142.938 E.05037
G1 X150.956 Y143.236 E.053
G1 X80.064 Y143.236 E2.22278
G1 X78.724 Y143.042 E.04247
G1 X77.474 Y142.546 E.04216
G1 X76.371 Y141.77 E.04227
G1 X75.478 Y140.758 E.04232
G1 X74.762 Y139.32 E.05037
G1 X74.464 Y137.656 E.053
G1 X74.464 Y93.364 E1.38875
G1 X74.658 Y92.023 E.04247
G1 X75.154 Y90.774 E.04216
G1 X75.93 Y89.671 E.04227
G1 X76.426 Y89.234 E.02074
G1 X76.673 Y89.515 F9000
G1 F1200
G1 X77.172 Y89.078 E.02079
G1 X78.522 Y88.412 E.04722
G1 X80.06 Y88.141 E.04896
G1 X150.948 Y88.142 E2.22263
G1 X152.089 Y88.299 E.03612
G1 X153.161 Y88.686 E.03572
G1 X154.615 Y89.74 E.05631
G1 X155.618 Y91.148 E.05422
G1 X156.003 Y92.223 E.03579
G1 X156.159 Y93.38 E.03662
G1 X156.159 Y137.622 E1.38717
G1 X155.972 Y138.899 E.04047
G1 X155.504 Y140.065 E.03937
G1 X154.775 Y141.092 E.03949
G1 X153.828 Y141.922 E.03948
G1 X152.478 Y142.588 E.04722
G1 X150.94 Y142.859 E.04896
G1 X80.078 Y142.859 E2.22183
G1 X78.801 Y142.672 E.04047
G1 X77.635 Y142.204 E.03937
G1 X76.608 Y141.475 E.03949
G1 X75.778 Y140.528 E.03948
G1 X75.112 Y139.178 E.04722
G1 X74.841 Y137.64 E.04896
G1 X74.841 Y93.378 E1.38781
G1 X75.028 Y92.101 E.04047
G1 X75.496 Y90.935 E.03937
G1 X76.225 Y89.908 E.03949
G1 X76.628 Y89.555 E.01681
G1 X76.873 Y89.837 F9000
G1 F1200
G1 X77.4 Y89.379 E.02188
G1 X78.663 Y88.763 E.04408
G1 X80.076 Y88.518 E.04496
G1 X150.935 Y88.519 E2.22174
G1 X151.98 Y88.661 E.03306
G1 X153.008 Y89.032 E.03426
G1 X154.327 Y89.985 E.05101
G1 X155.272 Y91.301 E.05081
G1 X155.642 Y92.331 E.03432
G1 X155.782 Y93.393 E.03358
G1 X155.782 Y137.609 E1.38637
G1 X155.613 Y138.78 E.03709
G1 X155.163 Y139.903 E.03794
G1 X154.482 Y140.854 E.03667
G1 X153.6 Y141.621 E.03664
G1 X152.337 Y142.237 E.04408
G1 X150.924 Y142.482 E.04496
G1 X80.091 Y142.482 E2.22092
G1 X78.92 Y142.313 E.03709
G1 X77.797 Y141.863 E.03794
G1 X76.846 Y141.182 E.03667
G1 X76.079 Y140.3 E.03664
G1 X75.463 Y139.037 E.04408
G1 X75.218 Y137.624 E.04496
G1 X75.218 Y93.391 E1.38689
G1 X75.387 Y92.22 E.03709
G1 X75.837 Y91.097 E.03794
G1 X76.518 Y90.146 E.03667
G1 X76.828 Y89.877 E.01288
G1 X77.075 Y90.161 F9000
G1 F1200
G1 X77.628 Y89.681 E.02296
G1 X78.802 Y89.114 E.04089
G1 X80.092 Y88.895 E.04101
G1 X150.922 Y88.896 E2.22084
G1 X151.908 Y89.032 E.03121
G1 X152.853 Y89.377 E.03154
G1 X154.08 Y90.271 E.0476
G1 X154.927 Y91.454 E.04561
G1 X155.271 Y92.402 E.03162
G1 X155.405 Y93.405 E.03175
G1 X155.405 Y137.596 E1.38557
G1 X155.254 Y138.662 E.03377
G1 X154.842 Y139.704 E.03512
G1 X154.217 Y140.584 E.03384
G1 X153.372 Y141.319 E.03512
G1 X152.198 Y141.886 E.04089
G1 X150.908 Y142.105 E.041
G1 X80.104 Y142.105 E2.22002
G1 X79.038 Y141.954 E.03377
G1 X77.996 Y141.542 E.03512
G1 X77.116 Y140.917 E.03384
G1 X76.381 Y140.072 E.03512
G1 X75.814 Y138.898 E.04089
G1 X75.595 Y137.608 E.041
G1 X75.595 Y93.404 E1.386
G1 X75.746 Y92.338 E.03377
G1 X76.158 Y91.296 E.03512
G1 X76.783 Y90.416 E.03384
G1 X77.03 Y90.2 E.01028
G1 X77.274 Y90.483 F9000
G1 F1200
G1 X77.855 Y89.983 E.02405
G1 X78.893 Y89.481 E.03614
G1 X80.108 Y89.272 E.03867
G1 X150.909 Y89.274 E2.21992
G1 X151.836 Y89.402 E.02934
G1 X152.698 Y89.721 E.02882
G1 X153.792 Y90.517 E.04242
G1 X154.582 Y91.609 E.04227
G1 X154.9 Y92.473 E.02887
G1 X155.028 Y93.418 E.0299
G1 X155.028 Y137.583 E1.38474
G1 X154.884 Y138.586 E.03179
G1 X154.501 Y139.542 E.03228
G1 X153.925 Y140.346 E.03102
G1 X153.145 Y141.017 E.03226
G1 X152.107 Y141.519 E.03614
G1 X150.892 Y141.728 E.03866
G1 X80.117 Y141.728 E2.21909
G1 X79.114 Y141.584 E.03179
G1 X78.158 Y141.201 E.03228
G1 X77.354 Y140.625 E.03102
G1 X76.683 Y139.845 E.03226
G1 X76.181 Y138.807 E.03614
G1 X75.972 Y137.592 E.03866
G1 X75.972 Y93.417 E1.38506
G1 X76.116 Y92.414 E.03179
G1 X76.499 Y91.458 E.03228
G1 X77.075 Y90.654 E.03102
G1 X77.228 Y90.523 E.00633
G1 X77.47 Y90.806 F9000
G1 F1200
G1 X78.08 Y90.286 E.02513
G1 X79.03 Y89.833 E.03301
G1 X80.123 Y89.649 E.03475
G1 X150.897 Y89.651 E2.21904
G1 X151.725 Y89.763 E.02621
G1 X152.542 Y90.065 E.02732
G1 X153.545 Y90.803 E.03902
G1 X154.237 Y91.763 E.03713
G1 X154.539 Y92.584 E.02741
G1 X154.651 Y93.43 E.02678
G1 X154.651 Y137.57 E1.38396
G1 X154.525 Y138.469 E.02847
G1 X154.181 Y139.341 E.0294
G1 X153.632 Y140.107 E.02954
G1 X152.92 Y140.714 E.02933
G1 X151.97 Y141.167 E.03301
G1 X150.877 Y141.351 E.03475
G1 X80.13 Y141.351 E2.2182
G1 X79.231 Y141.225 E.02847
G1 X78.359 Y140.881 E.0294
G1 X77.593 Y140.332 E.02954
G1 X76.986 Y139.62 E.02933
G1 X76.533 Y138.67 E.03301
G1 X76.349 Y137.577 E.03475
G1 X76.349 Y93.43 E1.38418
G1 X76.475 Y92.531 E.02847
G1 X76.819 Y91.659 E.0294
G1 X77.368 Y90.893 E.02954
G1 X77.424 Y90.845 E.00231
G1 X77.664 Y91.13 F9000
G1 F1200
G1 X78.303 Y90.591 E.02621
G1 X79.166 Y90.186 E.02989
G1 X80.138 Y90.026 E.03089
G1 X150.883 Y90.028 E2.21816
G1 X151.652 Y90.134 E.02432
G1 X152.385 Y90.409 E.02456
G1 X153.258 Y91.049 E.03392
G1 X153.893 Y91.92 E.03382
G1 X154.168 Y92.656 E.02461
G1 X154.274 Y93.443 E.02492
G1 X154.274 Y137.556 E1.38313
G1 X154.155 Y138.393 E.02649
G1 X153.84 Y139.178 E.02653
G1 X153.341 Y139.866 E.02666
G1 X152.697 Y140.409 E.02641
G1 X151.834 Y140.814 E.02989
G1 X150.862 Y140.974 E.03088
G1 X80.144 Y140.974 E2.21731
G1 X79.307 Y140.855 E.02649
G1 X78.522 Y140.54 E.02653
G1 X77.834 Y140.041 E.02666
G1 X77.291 Y139.397 E.02641
G1 X76.886 Y138.534 E.02989
G1 X76.726 Y137.562 E.03088
G1 X76.726 Y93.444 E1.38329
G1 X76.845 Y92.607 E.02649
G1 X77.16 Y91.822 E.02653
G1 X77.628 Y91.177 E.02497
G1 X77.931 Y91.4 F9000
G1 F1200
G1 X78.525 Y90.897 E.02438
G1 X79.3 Y90.539 E.02678
G1 X80.153 Y90.403 E.02708
G1 X150.87 Y90.405 E2.21729
G1 X151.577 Y90.504 E.0224
G1 X152.225 Y90.752 E.02175
G1 X153.009 Y91.334 E.03062
G1 X153.549 Y92.076 E.02877
G1 X153.807 Y92.767 E.02313
G1 X153.897 Y93.455 E.02175
G1 X153.897 Y137.543 E1.38233
G1 X153.786 Y138.315 E.02448
G1 X153.5 Y139.013 E.02363
G1 X153.051 Y139.624 E.02377
G1 X152.475 Y140.103 E.02348
G1 X151.7 Y140.461 E.02678
G1 X150.847 Y140.597 E.02708
G1 X80.157 Y140.597 E2.21643
G1 X79.385 Y140.486 E.02448
G1 X78.687 Y140.2 E.02363
G1 X78.076 Y139.751 E.02377
G1 X77.597 Y139.175 E.02348
G1 X77.239 Y138.4 E.02678
G1 X77.103 Y137.547 E.02708
G1 X77.103 Y93.457 E1.38241
G1 X77.214 Y92.685 E.02448
G1 X77.5 Y91.987 E.02363
G1 X77.896 Y91.448 E.02096
G1 X78.2 Y91.672 F9000
G1 F1200
G1 X78.238 Y91.619 E.00204
G1 X78.743 Y91.205 E.02048
G1 X79.431 Y90.893 E.02367
G1 X80.167 Y90.78 E.02334
G1 X150.858 Y90.782 E2.21647
G1 X151.464 Y90.864 E.01917
G1 X152.067 Y91.095 E.02025
G1 X152.723 Y91.581 E.02561
G1 X153.206 Y92.235 E.02551
G1 X153.436 Y92.839 E.02026
G1 X153.52 Y93.468 E.01988
G1 X153.52 Y137.53 E1.38154
G1 X153.427 Y138.198 E.02114
G1 X153.182 Y138.809 E.02066
G1 X152.762 Y139.381 E.02223
G1 X152.257 Y139.795 E.02048
G1 X151.569 Y140.107 E.02367
G1 X150.833 Y140.22 E.02334
G1 X80.17 Y140.22 E2.2156
G1 X79.502 Y140.127 E.02114
G1 X78.891 Y139.882 E.02066
G1 X78.319 Y139.462 E.02223
G1 X77.905 Y138.957 E.02048
G1 X77.593 Y138.269 E.02367
G1 X77.48 Y137.533 E.02334
G1 X77.48 Y93.47 E1.38158
G1 X77.573 Y92.802 E.02114
G1 X77.818 Y92.191 E.02066
G1 X78.164 Y91.72 E.01831
G1 X78.465 Y91.945 F9000
G1 F1200
G1 X78.525 Y91.865 E.00313
G1 X78.961 Y91.514 E.01755
G1 X79.515 Y91.262 E.01909
G1 X80.182 Y91.157 E.02115
G1 X150.844 Y91.159 E2.21558
G1 X151.389 Y91.235 E.01723
G1 X151.904 Y91.436 E.01736
G1 X152.474 Y91.865 E.02235
G1 X152.864 Y92.396 E.02067
G1 X153.066 Y92.913 E.0174
G1 X153.143 Y93.481 E.01796
G1 X153.143 Y137.518 E1.38076
G1 X153.068 Y138.08 E.01777
G1 X152.841 Y138.645 E.01911
G1 X152.475 Y139.135 E.01916
G1 X152.039 Y139.486 E.01755
G1 X151.485 Y139.738 E.01909
G1 X150.818 Y139.843 E.02115
G1 X80.182 Y139.843 E2.21476
G1 X79.62 Y139.768 E.01777
G1 X79.055 Y139.541 E.01911
G1 X78.565 Y139.175 E.01916
G1 X78.214 Y138.739 E.01755
G1 X77.962 Y138.185 E.01909
G1 X77.857 Y137.518 E.02115
G1 X77.857 Y93.482 E1.38073
G1 X77.932 Y92.92 E.01777
G1 X78.159 Y92.355 E.01911
G1 X78.429 Y91.993 E.01415
G1 X78.727 Y92.221 F9000
G1 F1200
G1 X78.809 Y92.114 E.00422
G1 X79.174 Y91.826 E.0146
G1 X79.644 Y91.617 E.01609
G1 X80.195 Y91.534 E.01748
G1 X150.831 Y91.536 E2.21474
G1 X151.312 Y91.604 E.01525
G1 X151.741 Y91.776 E.01447
G1 X152.189 Y92.113 E.01758
G1 X152.524 Y92.561 E.01754
G1 X152.696 Y92.989 E.01446
G1 X152.766 Y93.494 E.01599
G1 X152.766 Y137.505 E1.37994
G1 X152.698 Y138.004 E.01578
G1 X152.503 Y138.478 E.01606
G1 X152.191 Y138.886 E.01611
G1 X151.826 Y139.174 E.0146
G1 X151.356 Y139.383 E.01609
G1 X150.805 Y139.466 E.01748
G1 X80.195 Y139.466 E2.21393
G1 X79.696 Y139.398 E.01578
G1 X79.222 Y139.203 E.01606
G1 X78.814 Y138.891 E.01611
G1 X78.526 Y138.526 E.0146
G1 X78.317 Y138.056 E.01609
G1 X78.234 Y137.505 E.01748
G1 X78.234 Y93.495 E1.3799
G1 X78.302 Y92.996 E.01578
G1 X78.497 Y92.522 E.01606
G1 X78.691 Y92.269 E.01001
G1 X78.99 Y92.492 F9000
G1 F1200
G1 X79.063 Y92.394 E.00382
G1 X79.388 Y92.137 E.01298
G1 X79.768 Y91.974 E.01297
G1 X80.208 Y91.911 E.01392
G1 X150.817 Y91.913 E2.2139
G1 X151.233 Y91.974 E.01319
G1 X151.572 Y92.114 E.01149
G1 X151.938 Y92.395 E.01448
G1 X152.185 Y92.727 E.01298
G1 X152.326 Y93.067 E.01152
G1 X152.389 Y93.508 E.01397
G1 X152.389 Y137.494 E1.37916
G1 X152.338 Y137.888 E.01247
G1 X152.185 Y138.274 E.01301
G1 X151.937 Y138.606 E.01298
G1 X151.612 Y138.863 E.01298
G1 X151.232 Y139.026 E.01297
G1 X150.792 Y139.089 E.01392
G1 X80.206 Y139.089 E2.21318
G1 X79.812 Y139.038 E.01247
G1 X79.426 Y138.885 E.01301
G1 X79.094 Y138.637 E.01298
G1 X78.837 Y138.312 E.01298
G1 X78.674 Y137.932 E.01297
G1 X78.611 Y137.492 E.01392
G1 X78.611 Y93.506 E1.37916
G1 X78.662 Y93.112 E.01247
G1 X78.815 Y92.726 E.01301
G1 X78.954 Y92.54 E.00728
G1 E-3.5 F3600
;WIPE_START
G1 F7200
G1 X79.063 Y92.394 E-.08635
G1 X79.388 Y92.137 E-.19669
G1 X79.768 Y91.974 E-.19651
G1 X80.208 Y91.911 E-.21094
G1 X81.754 Y91.911 E-.73451
;WIPE_END
G1 E-.075 F3600
G1 X128.5 Y133.452 F9000
G1 E5 F2400
;TYPE:External perimeter
;WIDTH:0.603056
G1 F1200
G1 X128.636 Y133.452 E.00635
G1 X128.403 Y133.519 F9000
;WIDTH:0.550359
G1 F1200
G1 X128.306 Y133.587 E.00499
;WIDTH:0.50795
G1 X128.209 Y133.654 E.00457
;WIDTH:0.465541
G1 X128.111 Y133.722 E.00416
;WIDTH:0.423131
G1 X127.954 Y133.763 E.00514
;WIDTH:0.447688
G1 X127.341 Y133.885 E.02103
;WIDTH:0.47928
G1 X126.766 Y133.95 E.02102
;WIDTH:0.486857
G1 X126.259 Y133.921 E.01874
G1 X125.799 Y133.783 E.01771
G1 X125.489 Y133.447 E.01689
G1 X126.844 Y133.514 E.05008
;WIDTH:0.472195
G1 X127.381 Y133.472 E.01923
;WIDTH:0.446343
G1 X127.904 Y133.388 E.01776
;WIDTH:0.465541
G1 X128.053 Y133.404 E.00527
;WIDTH:0.50795
G1 X128.202 Y133.42 E.00579
;WIDTH:0.550359
G1 X128.351 Y133.436 E.00632
;WIDTH:0.592768
G1 X128.5 Y133.452 E.00685
G1 X128.452 Y133.485 E.00267
G1 X129.864 Y133.655 F9000
;TYPE:Perimeter
;WIDTH:0.419997
G1 F1200
G1 X130.015 Y133.61 E.00493
G1 X129.907 Y134.24 E.02002
;WIDTH:0.414271
G1 X129.936 Y134.796 E.0172
;WIDTH:0.391268
G1 X129.928 Y134.757 E.00116
;WIDTH:0.414271
G1 X129.755 Y134.242 E.01677
G1 X129.483 Y133.745 E.01751
G1 X129.575 Y133.742 E.00285
;WIDTH:0.419997
G1 X129.807 Y133.673 E.00759
G1 E-3.5 F3600
;WIPE_START
G1 F7200
G1 X130.015 Y133.61 E-.10319
G1 X129.907 Y134.24 E-.30331
G1 X129.936 Y134.796 E-.26455
G1 X129.928 Y134.757 E-.01898
G1 X129.755 Y134.242 E-.25798
G1 X129.483 Y133.745 E-.2693
G1 X129.575 Y133.742 E-.04388
G1 X129.807 Y133.673 E-.11494
;WIPE_END
G1 E-.12386 F3600
G1 X129.879 Y129.161 F9000
G1 E5 F2400
;WIDTH:0.419999
G1 F1200
G1 X129.879 Y129.022 E.00435
G1 X129.948 Y128.812 E.00692
G1 X130.276 Y128.428 E.01584
G1 X130.817 Y128.164 E.01887
G1 X132.361 Y127.559 E.05198
G1 X133.194 Y127.414 E.02654
G1 X134.056 Y127.376 E.02705
G1 X134.886 Y127.416 E.02605
G1 X135.619 Y127.535 E.02326
G1 X136.302 Y127.784 E.02281
G1 X136.914 Y128.163 E.02256
