; generated by PrusaSlicer 2.5.0+win64 on 2023-11-17 at 11:16:04 UTC

; 

; external perimeters extrusion width = 0.42mm
; perimeters extrusion width = 0.44mm
; infill extrusion width = 0.44mm
; solid infill extrusion width = 0.44mm
; top infill extrusion width = 0.40mm
; support material extrusion width = 0.36mm
; first layer extrusion width = 0.42mm

M201 X500 Y500 Z100 E5000 ; sets maximum accelerations, mm/sec^2
M203 X500 Y500 Z10 E60 ; sets maximum feedrates, mm / sec
M204 P500 R1000 T500 ; sets acceleration (P, T) and retract acceleration (R), mm/sec^2
M205 X8.00 Y8.00 Z0.40 E5.00 ; sets the jerk limits, mm/sec
M205 S0 T0 ; sets the minimum extruding and travel feed rate, mm/sec
M107
;TYPE:Custom
G90 ; use absolute coordinates
M83 ; extruder relative mode
M104 S150 ; set temporary nozzle temp to prevent oozing during homing
M140 S60 ; set final bed temp
G4 S30 ; allow partial nozzle warmup
G28 ; home all axis
G1 Z50 F240
G1 X2.0 Y10 F3000
M104 S210 ; set final nozzle temp
M190 S60 ; wait for bed temp to stabilize
M109 S210 ; wait for nozzle temp to stabilize
G1 Z0.28 F240
G92 E0
G1 X2.0 Y140 E10 F1500 ; prime the nozzle
G1 X2.3 Y140 F5000
G92 E0
G1 X2.3 Y10 E10 F1200 ; prime the nozzle
G92 E0
G21 ; set units to millimeters
G90 ; use absolute coordinates
M83 ; use relative distances for extrusion
; Filament gcode
M107
;LAYER_CHANGE
;Z:0.2
;HEIGHT:0.2
;BEFORE_LAYER_CHANGE
G92 E0
;0.2


G1 E-5 F3600
G1 Z.2 F9000
;AFTER_LAYER_CHANGE
;0.2
G1 X74.519 Y87.355
G1 E5 F2400
M204 S500
;TYPE:Skirt/Brim
;WIDTH:0.42
G1 F1200
G1 X76.028 Y86.197 E.05964
G1 X76.992 Y85.674 E.03438
G1 X78.353 Y85.142 E.04583
G1 X79.42 Y84.886 E.03438
G1 X80.275 Y84.773 E.02707
G1 X116.319 Y84.631 E1.13012
G1 X150.725 Y84.773 E1.07879
G1 X151.58 Y84.886 E.02707
G1 X152.647 Y85.142 E.03438
G1 X154.008 Y85.674 E.04583
G1 X154.972 Y86.197 E.03438
G1 X156.481 Y87.356 E.05965
G1 X157.236 Y88.151 E.03438
G1 X157.857 Y88.961 E.032
G1 X158.626 Y90.292 E.04818
G1 X159.158 Y91.653 E.04583
G1 X159.414 Y92.719 E.03439
G1 X159.57 Y94.122 E.04425
G1 X159.577 Y136.657 E1.33366
G1 X159.414 Y138.281 E.05116
G1 X159.158 Y139.347 E.03438
G1 X158.626 Y140.708 E.04583
G1 X157.857 Y142.039 E.04819
G1 X157.236 Y142.849 E.032
G1 X156.481 Y143.645 E.03438
G1 X155.339 Y144.557 E.04583
G1 X154.404 Y145.13 E.03439
G1 X153.065 Y145.716 E.04583
G1 X152.014 Y146.028 E.03438
G1 X149.957 Y146.277 E.06495
G1 X81.043 Y146.277 E2.16076
G1 X79.419 Y146.114 E.05116
G1 X78.353 Y145.858 E.03438
G1 X76.992 Y145.326 E.04583
G1 X75.661 Y144.557 E.04819
G1 X74.851 Y143.936 E.032
G1 X74.055 Y143.181 E.03438
G1 X73.143 Y142.039 E.04583
G1 X72.57 Y141.104 E.03438
G1 X71.842 Y139.347 E.05964
G1 X71.586 Y138.28 E.03438
G1 X71.43 Y136.878 E.04424
G1 X71.43 Y94.122 E1.34059
G1 X71.586 Y92.72 E.04424
G1 X71.842 Y91.653 E.03438
G1 X72.374 Y90.292 E.04583
G1 X73.143 Y88.961 E.04819
G1 X73.764 Y88.151 E.032
G1 X74.478 Y87.399 E.0325
G1 E-3.5 F3600
;WIPE_START
G1 F7200
G1 X76.028 Y86.197 E-.93175
G1 X76.941 Y85.702 E-.49325
;WIPE_END
G1 E-.075 F3600
G1 X76.734 Y90.362 F9000
G1 E5 F2400
G1 F1200
G1 X78.528 Y88.995 E.0707
G1 X79.753 Y88.562 E.04073
G1 X81.057 Y88.387 E.04127
G1 X114.473 Y88.386 E1.04773
G1 X115.324 Y88.374 E.02669
G1 X116.796 Y88.304 E.04622
G1 X117.659 Y88.381 E.02715
G1 X118.498 Y88.386 E.02629
G1 X149.977 Y88.388 E.987
G1 X151.394 Y88.6 E.04494
G1 X152.725 Y89.133 E.04493
G1 X153.897 Y89.964 E.04505
G1 X154.821 Y91.011 E.0438
G1 X155.605 Y92.587 E.05518
G1 X155.913 Y94.327 E.05542
G1 X155.913 Y136.675 E1.3278
G1 X155.579 Y138.503 E.05827
G1 X155.084 Y139.573 E.03696
G1 X154.403 Y140.532 E.03687
G1 X152.473 Y142.004 E.07612
G1 X151.248 Y142.438 E.04075
G1 X149.943 Y142.613 E.04127
G1 X81.024 Y142.613 E2.1609
G1 X79.19 Y142.277 E.05846
G1 X78.119 Y141.779 E.03703
G1 X77.163 Y141.099 E.03681
G1 X75.695 Y139.172 E.07593
G1 X75.262 Y137.947 E.04073
G1 X75.087 Y136.643 E.04127
G1 X75.087 Y94.324 E1.32688
G1 X75.423 Y92.49 E.05846
G1 X75.921 Y91.419 E.03703
G1 X76.601 Y90.463 E.03681
G1 X76.686 Y90.398 E.00334
G1 X76.91 Y90.691 F9000
G1 F1200
G1 X78.682 Y89.341 E.06985
G1 X79.86 Y88.924 E.03919
G1 X81.069 Y88.764 E.03826
G1 X114.476 Y88.763 E1.04743
G1 X115.336 Y88.751 E.02699
G1 X116.776 Y88.68 E.0452
G1 X117.641 Y88.758 E.02723
G1 X118.496 Y88.764 E.02682
G1 X149.936 Y88.764 E.98577
G1 X151.276 Y88.958 E.04247
G1 X152.526 Y89.454 E.04216
G1 X153.629 Y90.23 E.04227
G1 X154.522 Y91.242 E.04232
G1 X155.238 Y92.68 E.05036
G1 X155.536 Y94.344 E.053
G1 X155.536 Y136.658 E1.32674
G1 X155.226 Y138.368 E.05447
G1 X154.766 Y139.369 E.03456
G1 X154.112 Y140.291 E.03542
G1 X152.319 Y141.659 E.07071
G1 X151.14 Y142.076 E.03921
G1 X149.931 Y142.236 E.03826
G1 X81.041 Y142.236 E2.15999
G1 X79.326 Y141.924 E.05464
G1 X78.323 Y141.461 E.03463
G1 X77.404 Y140.808 E.03536
G1 X76.041 Y139.018 E.07053
G1 X75.624 Y137.84 E.03919
G1 X75.464 Y136.631 E.03826
G1 X75.464 Y94.341 E1.32596
G1 X75.776 Y92.626 E.05464
G1 X76.239 Y91.623 E.03463
G1 X76.87 Y90.735 E.03416
G1 X77.177 Y90.955 F9000
G1 F1200
G1 X78.836 Y89.686 E.0655
G1 X79.93 Y89.295 E.03642
G1 X81.082 Y89.141 E.03645
G1 X114.478 Y89.141 E1.04711
G1 X115.348 Y89.128 E.02729
G1 X116.756 Y89.057 E.04418
G1 X117.623 Y89.135 E.0273
G1 X118.495 Y89.141 E.02735
G1 X149.922 Y89.141 E.98537
G1 X151.199 Y89.328 E.04047
G1 X152.365 Y89.796 E.03937
G1 X153.392 Y90.525 E.0395
G1 X154.222 Y91.472 E.03948
G1 X154.888 Y92.822 E.04722
G1 X155.159 Y94.36 E.04896
G1 X155.159 Y136.642 E1.32571
G1 X154.873 Y138.232 E.05066
G1 X154.431 Y139.196 E.03324
G1 X153.822 Y140.049 E.03287
G1 X152.164 Y141.314 E.06537
G1 X151.07 Y141.705 E.03643
G1 X149.918 Y141.859 E.03645
G1 X81.058 Y141.859 E2.15907
G1 X79.462 Y141.572 E.05083
G1 X78.498 Y141.127 E.03331
G1 X77.647 Y140.518 E.0328
G1 X76.386 Y138.864 E.06521
G1 X75.995 Y137.77 E.03642
G1 X75.841 Y136.618 E.03645
G1 X75.841 Y94.358 E1.32504
G1 X76.128 Y92.762 E.05083
G1 X76.573 Y91.798 E.03331
G1 X77.142 Y91.004 E.03062
G1 X77.448 Y91.223 F9000
G1 F1200
G1 X78.992 Y90.031 E.06115
G1 X80.001 Y89.666 E.03364
G1 X81.095 Y89.518 E.03462
G1 X114.481 Y89.518 E1.04679
G1 X115.361 Y89.505 E.0276
G1 X116.735 Y89.434 E.04315
G1 X117.605 Y89.512 E.02737
G1 X118.494 Y89.518 E.02788
G1 X149.909 Y89.518 E.985
G1 X151.08 Y89.687 E.03709
G1 X152.203 Y90.137 E.03794
G1 X153.154 Y90.818 E.03667
G1 X153.921 Y91.7 E.03664
G1 X154.537 Y92.963 E.04408
G1 X154.782 Y94.376 E.04496
G1 X154.782 Y136.625 E1.3247
G1 X154.52 Y138.098 E.04689
G1 X154.113 Y138.991 E.03079
G1 X153.531 Y139.807 E.0314
G1 X152.009 Y140.969 E.06006
G1 X150.999 Y141.334 E.03365
G1 X149.905 Y141.482 E.03462
G1 X81.074 Y141.482 E2.15815
G1 X79.597 Y141.219 E.04704
G1 X78.702 Y140.809 E.03086
G1 X77.889 Y140.228 E.03134
G1 X76.731 Y138.708 E.05991
G1 X76.366 Y137.699 E.03364
G1 X76.218 Y136.605 E.03462
G1 X76.218 Y94.374 E1.32413
G1 X76.481 Y92.897 E.04704
G1 X76.891 Y92.002 E.03086
G1 X77.413 Y91.272 E.02816
G1 X77.719 Y91.492 F9000
G1 F1200
G1 X77.762 Y91.432 E.0023
G1 X79.147 Y90.375 E.05463
G1 X80.11 Y90.027 E.03209
G1 X81.107 Y89.895 E.03155
G1 X114.483 Y89.895 E1.04649
G1 X115.374 Y89.882 E.02792
G1 X116.715 Y89.811 E.04212
G1 X117.587 Y89.889 E.02743
G1 X118.493 Y89.895 E.02841
G1 X149.896 Y89.895 E.98463
G1 X150.962 Y90.046 E.03377
G1 X152.004 Y90.458 E.03512
G1 X152.884 Y91.083 E.03384
G1 X153.619 Y91.928 E.03512
G1 X154.186 Y93.102 E.04089
G1 X154.405 Y94.392 E.04101
G1 X154.405 Y136.609 E1.3237
G1 X154.167 Y137.963 E.04311
G1 X153.778 Y138.818 E.02945
G1 X153.241 Y139.564 E.0288
G1 X151.853 Y140.624 E.05478
G1 X150.89 Y140.973 E.03211
G1 X149.893 Y141.105 E.03155
G1 X81.09 Y141.105 E2.15726
G1 X79.732 Y140.866 E.04325
G1 X78.876 Y140.474 E.02951
G1 X78.132 Y139.938 E.02874
G1 X77.075 Y138.553 E.05463
G1 X76.727 Y137.59 E.03209
G1 X76.595 Y136.593 E.03155
G1 X76.595 Y94.39 E1.32323
G1 X76.834 Y93.032 E.04325
G1 X77.226 Y92.176 E.02951
G1 X77.684 Y91.541 E.02456
G1 X77.99 Y91.761 F9000
G1 F1200
G1 X78.051 Y91.676 E.00331
G1 X79.304 Y90.719 E.0494
G1 X80.181 Y90.398 E.02928
G1 X81.12 Y90.272 E.02971
G1 X114.486 Y90.272 E1.04618
G1 X115.387 Y90.259 E.02825
G1 X116.695 Y90.188 E.04109
G1 X117.569 Y90.266 E.02749
G1 X118.492 Y90.272 E.02894
G1 X149.883 Y90.272 E.98424
G1 X150.886 Y90.416 E.03179
G1 X151.842 Y90.799 E.03228
G1 X152.646 Y91.375 E.03102
G1 X153.317 Y92.155 E.03226
G1 X153.819 Y93.193 E.03613
G1 X154.028 Y94.408 E.03867
G1 X154.028 Y136.593 E1.32269
G1 X153.814 Y137.831 E.03938
G1 X153.46 Y138.613 E.02693
G1 X152.952 Y139.321 E.02733
G1 X151.696 Y140.28 E.04953
G1 X150.819 Y140.602 E.02929
G1 X149.88 Y140.728 E.02971
G1 X81.106 Y140.728 E2.15635
G1 X79.865 Y140.512 E.0395
G1 X79.081 Y140.157 E.02699
G1 X78.376 Y139.649 E.02727
G1 X77.419 Y138.396 E.0494
G1 X77.098 Y137.519 E.02928
G1 X76.972 Y136.58 E.02971
G1 X76.972 Y94.406 E1.32233
G1 X77.188 Y93.165 E.0395
G1 X77.543 Y92.381 E.02699
G1 X77.955 Y91.81 E.02207
G1 X78.259 Y92.031 F9000
G1 F1200
G1 X78.34 Y91.92 E.00433
G1 X79.46 Y91.064 E.0442
G1 X80.291 Y90.759 E.02773
G1 X81.132 Y90.649 E.0266
G1 X114.489 Y90.649 E1.04588
G1 X115.4 Y90.636 E.02859
G1 X116.667 Y90.564 E.03978
G1 X117.193 Y90.623 E.01658
G1 X117.561 Y90.643 E.01156
G1 X118.49 Y90.649 E.02914
G1 X149.87 Y90.649 E.98388
G1 X150.769 Y90.775 E.02847
G1 X151.641 Y91.119 E.0294
G1 X152.407 Y91.668 E.02954
G1 X153.014 Y92.38 E.02933
G1 X153.467 Y93.33 E.03301
G1 X153.651 Y94.423 E.03475
G1 X153.651 Y136.578 E1.32172
G1 X153.46 Y137.698 E.03563
G1 X153.125 Y138.44 E.02555
G1 X152.663 Y139.077 E.02467
G1 X151.54 Y139.936 E.04432
G1 X150.709 Y140.241 E.02774
G1 X149.868 Y140.351 E.0266
G1 X81.122 Y140.351 E2.15548
G1 X79.998 Y140.159 E.03575
G1 X79.254 Y139.822 E.02561
G1 X78.62 Y139.36 E.02461
G1 X77.764 Y138.24 E.0442
G1 X77.459 Y137.409 E.02773
G1 X77.349 Y136.568 E.0266
G1 X77.349 Y94.422 E1.32146
G1 X77.541 Y93.298 E.03575
G1 X77.878 Y92.554 E.02561
G1 X78.224 Y92.08 E.0184
G1 X78.529 Y92.302 F9000
G1 F1200
G1 X78.629 Y92.164 E.00535
G1 X79.619 Y91.407 E.03905
G1 X80.362 Y91.13 E.02488
G1 X81.144 Y91.026 E.02475
G1 X114.491 Y91.026 E1.04557
G1 X115.414 Y91.013 E.02894
G1 X116.641 Y90.941 E.03853
G1 X117.162 Y90.999 E.01642
G1 X117.55 Y91.02 E.01219
G1 X118.489 Y91.026 E.02946
G1 X149.856 Y91.026 E.98349
G1 X150.693 Y91.145 E.02649
G1 X151.478 Y91.46 E.02653
G1 X152.166 Y91.959 E.02666
G1 X152.709 Y92.603 E.02641
G1 X153.114 Y93.466 E.02989
G1 X153.274 Y94.438 E.03089
G1 X153.274 Y136.562 E1.32076
G1 X153.106 Y137.567 E.03194
G1 X152.808 Y138.235 E.02295
G1 X152.374 Y138.834 E.02318
G1 X151.382 Y139.593 E.03916
G1 X150.638 Y139.87 E.02488
G1 X149.855 Y139.974 E.02475
G1 X81.138 Y139.974 E2.1546
G1 X80.13 Y139.804 E.03204
G1 X79.46 Y139.505 E.02301
G1 X78.864 Y139.071 E.02312
G1 X78.107 Y138.081 E.03905
G1 X77.83 Y137.338 E.02488
G1 X77.726 Y136.555 E.02475
G1 X77.726 Y94.438 E1.32058
G1 X77.896 Y93.43 E.03204
G1 X78.195 Y92.76 E.02301
G1 X78.493 Y92.35 E.01589
G1 X78.796 Y92.573 F9000
G1 F1200
G1 X78.916 Y92.409 E.00638
G1 X79.778 Y91.75 E.03402
G1 X80.435 Y91.501 E.02201
G1 X81.157 Y91.403 E.02287
G1 X114.494 Y91.403 E1.04525
G1 X115.429 Y91.39 E.02931
G1 X116.615 Y91.317 E.03728
G1 X117.131 Y91.375 E.01626
G1 X117.539 Y91.397 E.01281
G1 X118.488 Y91.403 E.02977
G1 X149.843 Y91.403 E.9831
G1 X150.615 Y91.514 E.02448
G1 X151.313 Y91.8 E.02363
G1 X151.924 Y92.249 E.02377
G1 X152.403 Y92.825 E.02348
G1 X152.761 Y93.6 E.02678
G1 X152.897 Y94.453 E.02708
G1 X152.897 Y136.547 E1.31984
G1 X152.751 Y137.436 E.02823
G1 X152.472 Y138.063 E.02153
G1 X152.086 Y138.589 E.02045
G1 X151.222 Y139.25 E.03412
G1 X150.565 Y139.499 E.02201
G1 X149.843 Y139.597 E.02287
G1 X81.153 Y139.597 E2.15372
G1 X80.261 Y139.45 E.02833
G1 X79.633 Y139.169 E.02158
G1 X79.109 Y138.784 E.02039
G1 X78.45 Y137.922 E.03402
G1 X78.201 Y137.265 E.02201
G1 X78.103 Y136.543 E.02287
G1 X78.103 Y94.453 E1.3197
G1 X78.25 Y93.561 E.02833
G1 X78.531 Y92.933 E.02158
G1 X78.76 Y92.621 E.01213
G1 X79.064 Y92.845 F9000
G1 F1200
G1 X79.204 Y92.654 E.00742
G1 X79.938 Y92.092 E.02896
G1 X80.547 Y91.862 E.02044
G1 X81.169 Y91.78 E.01966
G1 X114.497 Y91.78 E1.04496
G1 X115.444 Y91.767 E.0297
G1 X116.59 Y91.694 E.03601
G1 X117.1 Y91.751 E.01609
G1 X117.527 Y91.774 E.01343
G1 X118.487 Y91.78 E.03008
G1 X149.83 Y91.78 E.98274
G1 X150.498 Y91.873 E.02114
G1 X151.109 Y92.118 E.02066
G1 X151.681 Y92.538 E.02223
G1 X152.095 Y93.043 E.02048
G1 X152.407 Y93.731 E.02367
G1 X152.52 Y94.467 E.02334
G1 X152.52 Y136.533 E1.31895
G1 X152.396 Y137.307 E.0246
G1 X152.155 Y137.857 E.01882
G1 X151.798 Y138.344 E.01894
G1 X151.063 Y138.907 E.02904
G1 X150.453 Y139.138 E.02045
G1 X149.831 Y139.22 E.01966
G1 X81.167 Y139.22 E2.15289
G1 X80.39 Y139.095 E.02469
G1 X79.839 Y138.853 E.01887
G1 X79.354 Y138.496 E.01889
G1 X78.792 Y137.762 E.02896
G1 X78.562 Y137.153 E.02044
G1 X78.48 Y136.531 E.01966
G1 X78.48 Y94.467 E1.31887
G1 X78.605 Y93.69 E.02469
G1 X78.847 Y93.139 E.01887
G1 X79.028 Y92.893 E.00958
G1 X79.332 Y93.116 F9000
G1 F1200
G1 X79.492 Y92.899 E.00847
G1 X80.099 Y92.434 E.02398
G1 X80.62 Y92.232 E.01752
G1 X81.182 Y92.157 E.01777
G1 X114.499 Y92.157 E1.04464
G1 X115.459 Y92.144 E.03009
G1 X116.565 Y92.071 E.03474
G1 X117.069 Y92.127 E.0159
G1 X117.516 Y92.151 E.01405
G1 X118.486 Y92.157 E.03039
G1 X149.818 Y92.157 E.98241
G1 X150.38 Y92.232 E.01777
G1 X150.945 Y92.459 E.01911
G1 X151.435 Y92.825 E.01916
G1 X151.786 Y93.261 E.01755
G1 X152.038 Y93.815 E.01909
G1 X152.143 Y94.482 E.02115
G1 X152.143 Y136.519 E1.31804
G1 X152.04 Y137.179 E.02095
G1 X151.819 Y137.685 E.01734
G1 X151.511 Y138.097 E.01611
G1 X150.901 Y138.566 E.02414
G1 X150.38 Y138.768 E.01752
G1 X149.818 Y138.843 E.01777
G1 X81.181 Y138.843 E2.15205
G1 X80.516 Y138.739 E.02111
G1 X80.045 Y138.536 E.0161
G1 X79.599 Y138.208 E.01735
G1 X79.134 Y137.601 E.02398
G1 X78.932 Y137.08 E.01752
G1 X78.857 Y136.518 E.01777
G1 X78.857 Y94.481 E1.31803
G1 X78.961 Y93.816 E.02111
G1 X79.164 Y93.345 E.0161
G1 X79.297 Y93.165 E.007
G1 X79.596 Y93.389 F9000
G1 F1200
G1 X79.778 Y93.146 E.00951
G1 X80.264 Y92.774 E.01919
G1 X80.695 Y92.602 E.01456
G1 X81.195 Y92.534 E.01582
G1 X114.502 Y92.534 E1.04431
G1 X115.475 Y92.521 E.03051
G1 X116.54 Y92.447 E.03347
G1 X117.038 Y92.503 E.01572
G1 X117.505 Y92.528 E.01467
G1 X118.484 Y92.534 E.0307
G1 X149.805 Y92.534 E.98204
G1 X150.304 Y92.602 E.01578
G1 X150.778 Y92.797 E.01606
G1 X151.186 Y93.109 E.01611
G1 X151.474 Y93.474 E.0146
G1 X151.683 Y93.944 E.01609
G1 X151.766 Y94.495 E.01748
G1 X151.766 Y136.505 E1.3172
G1 X151.684 Y137.054 E.0174
G1 X151.502 Y137.479 E.01447
G1 X151.225 Y137.851 E.01457
G1 X150.736 Y138.226 E.0193
G1 X150.305 Y138.398 E.01456
G1 X149.805 Y138.466 E.01582
G1 X81.195 Y138.466 E2.15122
G1 X80.642 Y138.383 E.01752
G1 X80.215 Y138.199 E.01459
G1 X79.846 Y137.922 E.01445
G1 X79.474 Y137.436 E.01919
G1 X79.302 Y137.005 E.01456
G1 X79.234 Y136.505 E.01582
G1 X79.234 Y94.495 E1.3172
G1 X79.317 Y93.942 E.01752
G1 X79.501 Y93.515 E.01459
G1 X79.56 Y93.437 E.00306
G1 X79.855 Y93.664 F9000
G1 F1200
G1 X80.061 Y93.396 E.01059
G1 X80.427 Y93.115 E.01448
G1 X80.812 Y92.962 E.01297
G1 X81.206 Y92.911 E.01247
G1 X114.504 Y92.911 E1.04404
G1 X115.491 Y92.897 E.03094
G1 X116.515 Y92.824 E.03218
G1 X117.007 Y92.879 E.01552
G1 X117.494 Y92.905 E.0153
G1 X118.483 Y92.911 E.03102
G1 X149.794 Y92.911 E.98172
G1 X150.188 Y92.962 E.01247
G1 X150.574 Y93.115 E.01301
G1 X150.906 Y93.363 E.01298
G1 X151.163 Y93.688 E.01298
G1 X151.326 Y94.068 E.01297
G1 X151.389 Y94.508 E.01392
G1 X151.389 Y136.492 E1.31641
G1 X151.326 Y136.933 E.01397
G1 X151.185 Y137.273 E.01152
G1 X150.938 Y137.605 E.01298
G1 X150.573 Y137.885 E.01444
G1 X150.188 Y138.038 E.01297
G1 X149.794 Y138.089 E.01247
G1 X81.208 Y138.089 E2.15047
G1 X80.768 Y138.026 E.01392
G1 X80.387 Y137.862 E.01301
G1 X80.096 Y137.639 E.01149
G1 X79.815 Y137.273 E.01448
G1 X79.662 Y136.888 E.01297
G1 X79.611 Y136.494 E.01247
G1 X79.611 Y94.508 E1.31645
G1 X79.674 Y94.068 E.01392
G1 X79.826 Y93.715 E.01203
G1 X80.831 Y94.287 F9000
;TYPE:Perimeter
;WIDTH:0.419999
G1 F1200
G1 X80.987 Y94.131 E.00692
G1 X81.27 Y94.064 E.00912
G1 X115.071 Y94.056 E1.05982
