; generated by PrusaSlicer 2.5.0+win64 on 2023-05-27 at 03:54:50 UTC

; 

; external perimeters extrusion width = 0.42mm
; perimeters extrusion width = 0.44mm
; infill extrusion width = 0.44mm
; solid infill extrusion width = 0.44mm
; top infill extrusion width = 0.40mm
; support material extrusion width = 0.36mm
; first layer extrusion width = 0.42mm

M107
;TYPE:Custom
G90 ; use absolute coordinates
M83 ; extruder relative mode
M140 S60 ; set final bed temp
M104 S150 ; set temporary nozzle temp to prevent oozing during homing
G4 S10 ; allow partial nozzle warmup
G28 ; home all axis
G1 Z50 F240
G1 X2 Y10 F3000
M104 S210 ; set final nozzle temp
M190 S60 ; wait for bed temp to stabilize
M109 S210 ; wait for nozzle temp to stabilize
G1 Z0.28 F240
G92 E0
G1 Y140 E10 F1500 ; prime the nozzle
G1 X2.3 F5000
G92 E0
G1 Y10 E10 F1200 ; prime the nozzle
G92 E0
G21 ; set units to millimeters
G90 ; use absolute coordinates
M83 ; use relative distances for extrusion
; Filament gcode
M107
;LAYER_CHANGE
;Z:0.2
;HEIGHT:0.2
;BEFORE_LAYER_CHANGE
G92 E0
;0.2


G1 E-5 F3600
G1 Z.2 F9000
;AFTER_LAYER_CHANGE
;0.2
G1 X25.483 Y53.211
G1 E5 F2400
M204 S500
;TYPE:Skirt/Brim
;WIDTH:0.42
G1 F1200
G1 X26.445 Y52.861 E.03212
G1 X28.41 Y52.387 E.06335
G1 X30.395 Y52.223 E.06247
G1 X200.002 Y52.223 E5.3179
G1 X202.554 Y52.379 E.08017
G1 X203.903 Y52.678 E.0433
G1 X205.249 Y53.095 E.0442
G1 X207.361 Y54.129 E.07371
G1 X208.647 Y55.019 E.04904
G1 X209.424 Y55.674 E.03187
G1 X210.99 Y57.367 E.07233
G1 X211.888 Y58.672 E.04966
G1 X212.785 Y60.471 E.06301
G1 X213.133 Y61.421 E.03174
G1 X213.532 Y62.942 E.04931
G1 X213.763 Y64.964 E.06379
G1 X213.77 Y165.901 E3.1648
G1 X213.607 Y167.646 E.05496
G1 X213.133 Y169.579 E.0624
G1 X212.785 Y170.529 E.03174
G1 X212.106 Y171.951 E.04938
G1 X210.99 Y173.633 E.0633
G1 X210.333 Y174.417 E.03208
G1 X209.21 Y175.523 E.04944
G1 X207.599 Y176.718 E.06285
G1 X206.137 Y177.507 E.05209
G1 X204.601 Y178.13 E.05197
G1 X202.558 Y178.621 E.06591
G1 X200.593 Y178.778 E.06179
G1 X30.248 Y178.774 E5.34105
G1 X28.41 Y178.613 E.05786
G1 X26.445 Y178.139 E.06335
G1 X25.483 Y177.789 E.03212
G1 X24.055 Y177.11 E.04957
G1 X22.386 Y176.006 E.06275
G1 X21.62 Y175.37 E.03123
G1 X20.212 Y173.902 E.06376
G1 X19.23 Y172.522 E.0531
G1 X18.469 Y171.08 E.05112
G1 X17.854 Y169.536 E.05213
G1 X17.387 Y167.588 E.0628
G1 X17.223 Y165.605 E.0624
G1 X17.226 Y65.248 E3.14661
G1 X17.387 Y63.411 E.05781
G1 X17.853 Y61.466 E.06273
G1 X18.192 Y60.523 E.03139
G1 X18.877 Y59.072 E.05031
G1 X20.042 Y57.317 E.06605
G1 X20.665 Y56.58 E.03027
G1 X21.832 Y55.438 E.05121
G1 X23.433 Y54.263 E.06225
G1 X25.429 Y53.238 E.07036
G1 E-3.5 F3600
;WIPE_START
G1 F7200
G1 X26.445 Y52.861 E-.51483
G1 X28.308 Y52.412 E-.91017
;WIPE_END
G1 E-.075 F3600
G1 X26.985 Y56.597 F9000
G1 E5 F2400
G1 F1200
G1 X27.447 Y56.383 E.01597
G1 X28.897 Y56.022 E.04685
G1 X30.405 Y55.887 E.04746
G1 X200.615 Y55.887 E5.33682
G1 X202.384 Y56.068 E.05576
G1 X203.556 Y56.381 E.03804
G1 X204.501 Y56.773 E.03207
G1 X205.525 Y57.302 E.03613
G1 X206.51 Y57.996 E.03778
G1 X207.684 Y59.113 E.05082
G1 X208.701 Y60.486 E.05357
G1 X209.463 Y62.025 E.05385
G1 X209.941 Y63.676 E.05389
G1 X210.116 Y65.398 E.05425
G1 X210.116 Y165.606 E3.14195
G1 X209.922 Y167.424 E.05733
G1 X209.526 Y168.809 E.04517
G1 X208.942 Y170.102 E.04447
G1 X207.711 Y171.859 E.06727
G1 X206.696 Y172.85 E.04446
G1 X205.536 Y173.691 E.04494
G1 X204.075 Y174.426 E.05126
G1 X203.061 Y174.754 E.03343
G1 X201.904 Y175.013 E.03715
G1 X200.588 Y175.114 E.04141
G1 X30.395 Y175.113 E5.33628
G1 X28.573 Y174.918 E.05744
G1 X27.112 Y174.496 E.0477
G1 X25.722 Y173.841 E.04815
G1 X24.538 Y173.042 E.04478
G1 X23.771 Y172.346 E.03248
G1 X22.98 Y171.496 E.0364
G1 X22.277 Y170.49 E.0385
G1 X21.38 Y168.547 E.06707
G1 X21.021 Y167.1 E.04676
G1 X20.887 Y165.595 E.04737
G1 X20.887 Y65.405 E3.14139
G1 X21.021 Y63.901 E.04735
G1 X21.379 Y62.456 E.04667
G1 X22.236 Y60.579 E.06469
G1 X22.973 Y59.514 E.0406
G1 X23.671 Y58.754 E.03237
G1 X24.514 Y57.976 E.03594
G1 X25.515 Y57.278 E.03828
G1 X26.93 Y56.623 E.0489
G1 X27.088 Y56.962 F9000
G1 F1200
G1 X27.556 Y56.745 E.01618
G1 X28.974 Y56.391 E.04583
G1 X30.413 Y56.264 E.0453
G1 X200.605 Y56.264 E5.33626
G1 X202.301 Y56.437 E.05345
G1 X203.447 Y56.742 E.03717
G1 X204.349 Y57.118 E.03064
G1 X205.318 Y57.618 E.0342
G1 X206.282 Y58.296 E.03693
G1 X207.412 Y59.374 E.04899
G1 X208.388 Y60.696 E.05151
G1 X209.117 Y62.177 E.05175
G1 X209.574 Y63.764 E.05179
G1 X209.739 Y65.407 E.05177
G1 X209.739 Y165.596 E3.14135
G1 X209.555 Y167.337 E.05488
G1 X209.177 Y168.667 E.04336
G1 X208.605 Y169.93 E.04348
G1 X207.435 Y171.602 E.06397
G1 X206.443 Y172.57 E.04347
G1 X205.327 Y173.377 E.04316
G1 X203.92 Y174.083 E.04938
G1 X202.954 Y174.393 E.03181
G1 X201.862 Y174.638 E.0351
G1 X200.58 Y174.737 E.0403
G1 X30.404 Y174.736 E5.33574
G1 X28.662 Y174.551 E.05495
G1 X27.231 Y174.138 E.0467
G1 X25.897 Y173.507 E.04628
G1 X24.761 Y172.738 E.043
G1 X24.031 Y172.073 E.03097
G1 X23.282 Y171.269 E.03444
G1 X22.595 Y170.287 E.03756
G1 X21.742 Y168.439 E.06382
G1 X21.391 Y167.024 E.04574
G1 X21.264 Y165.587 E.04522
G1 X21.264 Y65.413 E3.14088
G1 X21.391 Y63.977 E.0452
G1 X21.741 Y62.564 E.04566
G1 X22.556 Y60.78 E.06149
G1 X23.275 Y59.74 E.03966
G1 X23.943 Y59.015 E.0309
G1 X24.74 Y58.278 E.03402
G1 X25.717 Y57.597 E.03736
G1 X27.033 Y56.987 E.04547
G1 X27.19 Y57.326 F9000
G1 F1200
G1 X27.665 Y57.106 E.0164
G1 X29.022 Y56.766 E.04388
G1 X30.421 Y56.641 E.04404
G1 X200.596 Y56.641 E5.3357
G1 X202.219 Y56.805 E.05114
G1 X203.337 Y57.103 E.03629
G1 X204.196 Y57.463 E.02921
G1 X205.112 Y57.934 E.03228
G1 X206.053 Y58.596 E.03607
G1 X207.139 Y59.635 E.04714
G1 X208.074 Y60.906 E.04945
G1 X208.771 Y62.328 E.04966
G1 X209.2 Y63.819 E.04865
G1 X209.362 Y65.416 E.05035
G1 X209.362 Y165.586 E3.14075
G1 X209.188 Y167.249 E.05243
G1 X208.818 Y168.55 E.0424
G1 X208.269 Y169.759 E.04162
G1 X207.159 Y171.344 E.06071
G1 X206.21 Y172.273 E.04161
G1 X205.119 Y173.062 E.04223
G1 X203.765 Y173.739 E.04747
G1 X202.847 Y174.031 E.03019
G1 X201.819 Y174.263 E.03306
G1 X200.573 Y174.36 E.03918
G1 X30.414 Y174.359 E5.3352
G1 X28.75 Y174.184 E.05248
G1 X27.378 Y173.79 E.04476
G1 X26.096 Y173.186 E.04442
G1 X24.984 Y172.433 E.0421
G1 X24.291 Y171.799 E.02946
G1 X23.583 Y171.042 E.0325
G1 X22.914 Y170.085 E.03661
G1 X22.104 Y168.331 E.06059
G1 X21.765 Y166.975 E.0438
G1 X21.641 Y165.578 E.04397
G1 X21.641 Y65.422 E3.14035
G1 X21.765 Y64.026 E.04395
G1 X22.103 Y62.672 E.04374
G1 X22.875 Y60.981 E.0583
G1 X23.578 Y59.965 E.03872
G1 X24.215 Y59.276 E.02942
G1 X24.966 Y58.58 E.03212
G1 X25.919 Y57.915 E.03643
G1 X27.136 Y57.352 E.04204
G1 X27.293 Y57.691 F9000
G1 F1200
G1 X27.774 Y57.468 E.01663
G1 X29.071 Y57.14 E.04193
G1 X30.43 Y57.018 E.04278
G1 X200.587 Y57.018 E5.33515
G1 X202.136 Y57.173 E.04884
G1 X203.227 Y57.464 E.0354
G1 X204.043 Y57.808 E.02777
G1 X204.906 Y58.25 E.03039
G1 X205.824 Y58.896 E.03521
G1 X206.866 Y59.896 E.04528
G1 X207.76 Y61.115 E.04738
G1 X208.425 Y62.478 E.04756
G1 X208.833 Y63.906 E.04656
G1 X208.985 Y65.426 E.04789
G1 X208.985 Y165.576 E3.14016
G1 X208.82 Y167.162 E.04999
G1 X208.468 Y168.407 E.04055
G1 X207.933 Y169.587 E.04062
G1 X206.882 Y171.087 E.05743
G1 X205.957 Y171.993 E.04061
G1 X204.911 Y172.747 E.04041
G1 X203.61 Y173.394 E.04557
G1 X202.741 Y173.669 E.02858
G1 X201.775 Y173.888 E.03105
G1 X200.565 Y173.983 E.03805
G1 X30.424 Y173.982 E5.33467
G1 X28.837 Y173.817 E.05002
G1 X27.524 Y173.442 E.04281
G1 X26.27 Y172.852 E.04347
G1 X25.208 Y172.129 E.04027
G1 X24.551 Y171.526 E.02795
G1 X23.884 Y170.815 E.03058
G1 X23.232 Y169.883 E.03566
G1 X22.465 Y168.221 E.05737
G1 X22.139 Y166.927 E.04186
G1 X22.018 Y165.57 E.04271
G1 X22.018 Y65.43 E3.13983
G1 X22.135 Y64.102 E.04178
G1 X22.464 Y62.781 E.04272
G1 X23.211 Y61.154 E.05613
G1 X23.88 Y60.192 E.03673
G1 X24.486 Y59.538 E.02797
G1 X25.193 Y58.882 E.03023
G1 X26.122 Y58.234 E.0355
G1 X27.239 Y57.716 E.03861
G1 X27.396 Y58.055 F9000
G1 F1200
G1 X27.884 Y57.829 E.01686
G1 X29.149 Y57.509 E.04091
G1 X30.438 Y57.395 E.04058
G1 X200.577 Y57.395 E5.3346
G1 X202.054 Y57.542 E.04653
G1 X203.117 Y57.825 E.03449
G1 X203.89 Y58.152 E.02632
G1 X204.7 Y58.566 E.02851
G1 X205.595 Y59.196 E.03433
G1 X206.593 Y60.156 E.04341
G1 X207.445 Y61.323 E.04531
G1 X208.079 Y62.627 E.04546
G1 X208.466 Y63.992 E.04448
G1 X208.607 Y65.435 E.04545
G1 X208.607 Y165.567 E3.13957
G1 X208.453 Y167.076 E.04755
G1 X208.11 Y168.29 E.03958
G1 X207.597 Y169.415 E.03874
G1 X206.606 Y170.831 E.0542
G1 X205.725 Y171.696 E.03872
G1 X204.704 Y172.432 E.03946
G1 X203.456 Y173.05 E.04364
G1 X202.636 Y173.307 E.02697
G1 X201.732 Y173.513 E.02907
G1 X200.558 Y173.606 E.03692
G1 X30.433 Y173.605 E5.33413
G1 X28.924 Y173.45 E.04758
G1 X27.67 Y173.094 E.04086
G1 X26.47 Y172.531 E.04158
G1 X25.432 Y171.826 E.03936
G1 X24.812 Y171.254 E.02644
G1 X24.185 Y170.587 E.02868
G1 X23.551 Y169.68 E.03471
G1 X22.826 Y168.112 E.05415
G1 X22.509 Y166.849 E.04084
G1 X22.395 Y165.562 E.04053
G1 X22.395 Y65.438 E3.13931
G1 X22.509 Y64.151 E.04052
G1 X22.826 Y62.889 E.04078
G1 X23.53 Y61.355 E.05294
G1 X24.181 Y60.418 E.03578
G1 X24.758 Y59.8 E.0265
G1 X25.42 Y59.183 E.02836
G1 X26.324 Y58.553 E.03456
G1 X27.342 Y58.08 E.03519
G1 X27.499 Y58.42 F9000
G1 F1200
G1 X27.994 Y58.19 E.01711
G1 X29.198 Y57.883 E.03894
G1 X30.447 Y57.772 E.03932
G1 X200.568 Y57.772 E5.33405
G1 X201.972 Y57.91 E.04422
G1 X203.007 Y58.186 E.03358
G1 X203.736 Y58.497 E.02486
G1 X204.494 Y58.882 E.02665
G1 X205.366 Y59.496 E.03344
G1 X206.319 Y60.416 E.04152
G1 X207.13 Y61.531 E.04324
G1 X207.732 Y62.776 E.04336
G1 X208.098 Y64.078 E.0424
G1 X208.23 Y65.444 E.04303
G1 X208.23 Y165.558 E3.139
G1 X208.086 Y166.99 E.04513
G1 X207.76 Y168.147 E.03771
G1 X207.261 Y169.242 E.03773
G1 X206.329 Y170.574 E.05095
G1 X205.471 Y171.417 E.03772
G1 X204.497 Y172.116 E.03761
G1 X203.303 Y172.705 E.04172
G1 X202.531 Y172.945 E.02536
G1 X201.688 Y173.139 E.02712
G1 X200.55 Y173.229 E.03577
G1 X30.443 Y173.228 E5.3336
G1 X29.011 Y173.083 E.04513
G1 X27.788 Y172.736 E.03985
G1 X26.644 Y172.197 E.03966
G1 X25.656 Y171.522 E.03751
G1 X25.073 Y170.982 E.02493
G1 X24.486 Y170.36 E.0268
G1 X23.869 Y169.478 E.03375
G1 X23.187 Y168.003 E.05095
G1 X22.883 Y166.801 E.03888
G1 X22.772 Y165.553 E.03926
G1 X22.772 Y65.447 E3.13878
G1 X22.883 Y64.199 E.03926
G1 X23.187 Y62.999 E.03883
G1 X23.849 Y61.557 E.04976
G1 X24.483 Y60.645 E.03482
G1 X25.029 Y60.062 E.02502
G1 X25.647 Y59.485 E.02652
G1 X26.526 Y58.872 E.03362
G1 X27.445 Y58.445 E.03176
G1 X27.602 Y58.784 F9000
G1 F1200
G1 X28.104 Y58.551 E.01735
G1 X29.276 Y58.253 E.03791
G1 X30.455 Y58.149 E.03711
G1 X200.559 Y58.149 E5.33351
G1 X201.89 Y58.278 E.04191
G1 X202.896 Y58.547 E.03266
G1 X203.582 Y58.841 E.0234
G1 X204.288 Y59.199 E.02481
G1 X205.137 Y59.796 E.03255
G1 X206.045 Y60.675 E.03961
G1 X206.814 Y61.738 E.04116
G1 X207.385 Y62.924 E.04126
G1 X207.73 Y64.163 E.04032
G1 X207.853 Y65.453 E.04062
G1 X207.853 Y165.548 E3.13843
G1 X207.718 Y166.904 E.04273
G1 X207.411 Y168.004 E.03581
G1 X206.925 Y169.07 E.03673
G1 X206.052 Y170.317 E.04773
G1 X205.239 Y171.119 E.03581
G1 X204.289 Y171.801 E.03665
G1 X203.151 Y172.36 E.03977
G1 X202.426 Y172.582 E.02377
G1 X201.644 Y172.764 E.02519
G1 X200.543 Y172.852 E.03462
G1 X30.452 Y172.851 E5.33307
G1 X29.097 Y172.715 E.0427
G1 X27.934 Y172.388 E.03788
G1 X26.844 Y171.877 E.03774
G1 X25.881 Y171.219 E.03658
G1 X25.334 Y170.71 E.02341
G1 X24.787 Y170.132 E.02495
G1 X24.188 Y169.275 E.03278
G1 X23.549 Y167.893 E.04774
G1 X23.252 Y166.723 E.03786
G1 X23.149 Y165.545 E.03706
G1 X23.149 Y65.455 E3.13827
G1 X23.252 Y64.277 E.03706
G1 X23.548 Y63.108 E.03781
G1 X24.168 Y61.758 E.04658
G1 X24.785 Y60.871 E.03385
G1 X25.299 Y60.325 E.02353
G1 X25.874 Y59.786 E.02469
G1 X26.728 Y59.19 E.03268
G1 X27.548 Y58.809 E.02834
G1 X27.706 Y59.148 F9000
G1 F1200
G1 X28.215 Y58.912 E.01761
G1 X29.325 Y58.627 E.03592
G1 X30.463 Y58.526 E.03584
G1 X200.55 Y58.526 E5.33297
G1 X201.808 Y58.647 E.03961
G1 X202.786 Y58.907 E.03173
G1 X203.428 Y59.185 E.02193
G1 X204.082 Y59.515 E.023
G1 X204.908 Y60.096 E.03163
G1 X205.77 Y60.934 E.0377
G1 X206.482 Y61.917 E.03808
G1 X207.026 Y63.043 E.03919
G1 X207.357 Y64.216 E.03822
G1 X207.476 Y65.462 E.03924
G1 X207.476 Y165.539 E3.13786
G1 X207.35 Y166.819 E.04032
G1 X207.052 Y167.889 E.03482
G1 X206.59 Y168.898 E.0348
G1 X205.775 Y170.061 E.04452
G1 X204.985 Y170.84 E.0348
G1 X204.083 Y171.485 E.03475
G1 X202.999 Y172.014 E.03782
G1 X202.323 Y172.22 E.02218
G1 X201.599 Y172.389 E.0233
G1 X200.535 Y172.475 E.03346
G1 X30.461 Y172.474 E5.33254
G1 X29.182 Y172.348 E.0403
G1 X28.08 Y172.04 E.0359
G1 X27.018 Y171.542 E.03676
G1 X26.106 Y170.916 E.03468
G1 X25.596 Y170.439 E.02191
G1 X25.088 Y169.904 E.02312
G1 X24.506 Y169.073 E.03181
G1 X23.91 Y167.783 E.04456
G1 X23.627 Y166.674 E.03588
G1 X23.526 Y165.537 E.0358
G1 X23.526 Y65.463 E3.13774
G1 X23.627 Y64.326 E.0358
G1 X23.909 Y63.218 E.03584
G1 X24.488 Y61.96 E.04343
G1 X25.086 Y61.099 E.03288
G1 X25.569 Y60.588 E.02203
G1 X26.101 Y60.088 E.0229
G1 X26.931 Y59.509 E.03172
G1 X27.651 Y59.174 E.02492
G1 X27.809 Y59.513 F9000
G1 F1200
G1 X28.326 Y59.272 E.01789
G1 X29.374 Y59.001 E.03393
G1 X30.472 Y58.903 E.03456
G1 X200.542 Y58.903 E5.33243
G1 X201.726 Y59.015 E.0373
G1 X202.674 Y59.268 E.03078
G1 X203.272 Y59.528 E.02044
G1 X203.877 Y59.832 E.02122
G1 X204.678 Y60.395 E.03071
G1 X205.495 Y61.192 E.03577
G1 X206.166 Y62.124 E.03603
G1 X206.679 Y63.191 E.03711
G1 X206.989 Y64.301 E.03613
G1 X207.099 Y65.47 E.03683
G1 X207.099 Y165.53 E3.13731
G1 X206.983 Y166.734 E.03791
G1 X206.693 Y167.773 E.03382
G1 X206.254 Y168.724 E.03285
G1 X205.498 Y169.805 E.04136
G1 X204.753 Y170.542 E.03285
G1 X203.877 Y171.169 E.03377
G1 X202.849 Y171.668 E.03584
G1 X202.22 Y171.857 E.0206
G1 X201.554 Y172.014 E.02145
G1 X200.527 Y172.098 E.03229
G1 X30.47 Y172.097 E5.33202
G1 X29.267 Y171.98 E.03791
G1 X28.224 Y171.691 E.03392
G1 X27.218 Y171.222 E.0348
G1 X26.331 Y170.614 E.03372
G1 X25.858 Y170.168 E.02039
G1 X25.389 Y169.676 E.02131
G1 X24.825 Y168.87 E.03083
G1 X24.271 Y167.672 E.04139
G1 X24.001 Y166.625 E.0339
G1 X23.903 Y165.528 E.03452
G1 X23.903 Y65.472 E3.13721
G1 X24.001 Y64.375 E.03452
G1 X24.27 Y63.329 E.03387
G1 X24.807 Y62.161 E.04029
G1 X25.387 Y61.326 E.03189
G1 X25.839 Y60.852 E.02052
G1 X26.328 Y60.389 E.02113
G1 X27.133 Y59.828 E.03076
G1 X27.755 Y59.538 E.0215
G1 X27.913 Y59.877 F9000
G1 F1200
G1 X28.438 Y59.633 E.01816
G1 X29.453 Y59.37 E.03289
G1 X30.48 Y59.28 E.03231
G1 X200.533 Y59.28 E5.33191
G1 X201.644 Y59.384 E.03499
G1 X202.563 Y59.628 E.02981
G1 X203.116 Y59.872 E.01895
G1 X203.672 Y60.148 E.01946
G1 X204.449 Y60.695 E.02977
G1 X205.219 Y61.449 E.03381
G1 X205.85 Y62.33 E.03397
G1 X206.331 Y63.338 E.03502
G1 X206.621 Y64.385 E.03406
G1 X206.722 Y65.479 E.03445
G1 X206.722 Y165.521 E3.13677
G1 X206.615 Y166.649 E.03553
G1 X206.344 Y167.629 E.03187
G1 X205.919 Y168.551 E.03184
G1 X205.22 Y169.549 E.03819
G1 X204.499 Y170.263 E.03184
G1 X203.672 Y170.852 E.03183
G1 X202.699 Y171.322 E.03387
G1 X202.117 Y171.494 E.01902
G1 X201.508 Y171.64 E.01963
G1 X200.52 Y171.721 E.0311
G1 X30.479 Y171.72 E5.3315
G1 X29.351 Y171.612 E.03552
G1 X28.341 Y171.332 E.03289
G1 X27.393 Y170.887 E.03282
G1 X26.558 Y170.312 E.0318
G1 X26.121 Y169.897 E.01889
G1 X25.689 Y169.448 E.01954
G1 X25.144 Y168.668 E.02984
G1 X24.631 Y167.561 E.03822
G1 X24.37 Y166.546 E.03287
G1 X24.28 Y165.52 E.03229
G1 X24.28 Y65.48 E3.13671
G1 X24.37 Y64.454 E.03229
G1 X24.631 Y63.439 E.03285
G1 X25.126 Y62.363 E.03715
G1 X25.688 Y61.554 E.03089
G1 X26.108 Y61.116 E.01901
G1 X26.556 Y60.69 E.01939
G1 X27.335 Y60.146 E.02979
G1 X27.858 Y59.903 E.01809
G1 X28.016 Y60.242 F9000
G1 F1200
G1 X28.55 Y59.993 E.01845
G1 X29.502 Y59.744 E.03087
G1 X30.488 Y59.657 E.03103
G1 X200.525 Y59.658 E5.33138
G1 X201.563 Y59.752 E.03268
G1 X202.451 Y59.989 E.02883
G1 X203.467 Y60.465 E.03518
G1 X204.219 Y60.994 E.02881
G1 X204.942 Y61.706 E.03184
G1 X205.533 Y62.535 E.03191
G1 X205.984 Y63.484 E.03294
G1 X206.253 Y64.468 E.03198
G1 X206.345 Y65.487 E.03209
G1 X206.345 Y165.513 E3.13623
