; generated by PrusaSlicer 2.5.0+win64 on 2023-07-20 at 12:32:35 UTC

; 

; external perimeters extrusion width = 0.42mm
; perimeters extrusion width = 0.44mm
; infill extrusion width = 0.44mm
; solid infill extrusion width = 0.44mm
; top infill extrusion width = 0.40mm
; support material extrusion width = 0.36mm
; first layer extrusion width = 0.42mm

M201 X500 Y500 Z100 E5000 ; sets maximum accelerations, mm/sec^2
M203 X500 Y500 Z10 E60 ; sets maximum feedrates, mm / sec
M204 P500 R1000 T500 ; sets acceleration (P, T) and retract acceleration (R), mm/sec^2
M205 X8.00 Y8.00 Z0.40 E5.00 ; sets the jerk limits, mm/sec
M205 S0 T0 ; sets the minimum extruding and travel feed rate, mm/sec
M107
;TYPE:Custom
G90 ; use absolute coordinates
M83 ; extruder relative mode
M104 S150 ; set temporary nozzle temp to prevent oozing during homing
M140 S60 ; set final bed temp
G4 S30 ; allow partial nozzle warmup
G28 ; home all axis
G1 Z50 F240
G1 X2.0 Y10 F3000
M104 S210 ; set final nozzle temp
M190 S60 ; wait for bed temp to stabilize
M109 S210 ; wait for nozzle temp to stabilize
G1 Z0.28 F240
G92 E0
G1 X2.0 Y140 E10 F1500 ; prime the nozzle
G1 X2.3 Y140 F5000
G92 E0
G1 X2.3 Y10 E10 F1200 ; prime the nozzle
G92 E0
G21 ; set units to millimeters
G90 ; use absolute coordinates
M83 ; use relative distances for extrusion
; Filament gcode
M107
;LAYER_CHANGE
;Z:0.2
;HEIGHT:0.2
;BEFORE_LAYER_CHANGE
G92 E0
;0.2


G1 E-4 F3600
G1 Z.2 F9000
;AFTER_LAYER_CHANGE
;0.2
G1 X21.261 Y21.947
G1 E4 F2400
M204 S500
;TYPE:Skirt/Brim
;WIDTH:0.42
G1 F1200
G1 X22.838 Y20.488 E.06737
G1 X24.172 Y19.625 E.04983
G1 X25.01 Y19.198 E.02947
G1 X26.867 Y18.548 E.06167
G1 X27.787 Y18.36 E.02947
G1 X29.326 Y18.208 E.04846
G1 X131.974 Y18.208 E3.21846
G1 X133.885 Y18.423 E.06031
G1 X135.939 Y19.053 E.06737
G1 X137.127 Y19.625 E.04132
G1 X138.461 Y20.488 E.04982
G1 X139.182 Y21.091 E.02947
G1 X140.641 Y22.668 E.06737
G1 X141.504 Y24.003 E.04983
G1 X141.931 Y24.84 E.02947
G1 X142.581 Y26.697 E.06167
G1 X142.769 Y27.617 E.02947
G1 X142.906 Y28.875 E.03967
G1 X142.927 Y131.614 E3.22131
G1 X142.706 Y133.715 E.06623
G1 X142.076 Y135.769 E.06737
G1 X141.687 Y136.625 E.02947
G1 X140.86 Y137.982 E.04983
G1 X140.038 Y139.012 E.04132
G1 X138.461 Y140.471 E.06737
G1 X137.127 Y141.334 E.04982
G1 X136.289 Y141.761 E.02947
G1 X134.796 Y142.306 E.04982
G1 X133.885 Y142.536 E.02947
G1 X131.784 Y142.757 E.06623
G1 X29.515 Y142.757 E3.20658
G1 X27.414 Y142.536 E.06623
G1 X25.36 Y141.906 E.06737
G1 X24.172 Y141.334 E.04132
G1 X22.838 Y140.471 E.04982
G1 X22.117 Y139.868 E.02947
G1 X20.658 Y138.291 E.06737
G1 X19.795 Y136.957 E.04982
G1 X19.368 Y136.119 E.02947
G1 X18.823 Y134.627 E.04983
G1 X18.593 Y133.715 E.02947
G1 X18.372 Y131.614 E.06623
G1 X18.372 Y29.345 E3.20658
G1 X18.593 Y27.244 E.06623
G1 X19.223 Y25.19 E.06737
G1 X19.795 Y24.002 E.04132
G1 X20.658 Y22.668 E.04982
G1 X21.222 Y21.993 E.02759
G1 E-2.8 F3600
;WIPE_START
G1 F7200
G1 X22.838 Y20.488 E-1.0489
G1 X22.999 Y20.384 E-.0911
;WIPE_END
G1 E-.06 F3600
G1 X23.857 Y24.54 F9000
G1 E4 F2400
G1 F1200
G1 X25.172 Y23.321 E.05622
G1 X26.359 Y22.615 E.0433
G1 X27.621 Y22.141 E.04228
G1 X29.484 Y21.868 E.05905
G1 X65.043 Y21.87 E1.11491
G1 X66.038 Y22.072 E.03183
G1 X66.189 Y22.13 E.00507
G1 X67.235 Y21.866 E.03383
G1 X94.135 Y21.876 E.84342
G1 X95.154 Y22.148 E.0331
G1 X96.233 Y21.866 E.03494
G1 X132.026 Y21.882 E1.12227
G1 X133.658 Y22.137 E.05179
G1 X135.244 Y22.769 E.05353
G1 X136.648 Y23.738 E.0535
G1 X137.766 Y24.947 E.05164
G1 X138.599 Y26.372 E.05174
G1 X139.079 Y27.822 E.0479
G1 X139.263 Y29.348 E.04818
G1 X139.263 Y64.897 E1.11462
G1 X138.979 Y65.98 E.03509
G1 X139.263 Y67.062 E.03509
G1 X139.263 Y93.897 E.84139
G1 X138.979 Y94.98 E.03509
G1 X139.263 Y96.062 E.03509
G1 X139.263 Y131.617 E1.11479
G1 X139.017 Y133.395 E.05627
G1 X138.36 Y135.073 E.05652
G1 X137.386 Y136.483 E.05373
G1 X136.12 Y137.643 E.05385
G1 X134.935 Y138.347 E.04321
G1 X133.674 Y138.82 E.04221
G1 X131.79 Y139.093 E.05968
G1 X96.232 Y139.093 E1.11491
G1 X95.15 Y138.809 E.03509
G1 X94.067 Y139.093 E.03509
G1 X67.232 Y139.093 E.84139
G1 X66.15 Y138.809 E.03509
G1 X65.067 Y139.093 E.03509
G1 X29.512 Y139.093 E1.11479
G1 X27.735 Y138.847 E.05627
G1 X26.056 Y138.19 E.05652
G1 X24.646 Y137.216 E.05373
G1 X23.486 Y135.95 E.05385
G1 X22.783 Y134.765 E.0432
G1 X22.309 Y133.504 E.04222
G1 X22.036 Y131.62 E.05968
G1 X22.036 Y96.062 E1.11491
G1 X22.32 Y94.98 E.03509
G1 X22.036 Y93.897 E.03509
G1 X22.036 Y67.062 E.84139
G1 X22.32 Y65.98 E.03509
G1 X22.036 Y64.897 E.03509
G1 X22.036 Y29.352 E1.1145
G1 X22.264 Y27.638 E.0542
G1 X22.84 Y26.079 E.05213
G1 X23.824 Y24.591 E.05594
G1 X24.131 Y24.801 F9000
G1 F1200
G1 X25.382 Y23.634 E.05363
G1 X26.508 Y22.962 E.04109
G1 X27.734 Y22.501 E.0411
G1 X29.498 Y22.245 E.05587
G1 X65.023 Y22.247 E1.11388
G1 X65.94 Y22.437 E.02937
G1 X66.158 Y22.527 E.00738
G1 X67.259 Y22.243 E.03567
G1 X94.109 Y22.253 E.84185
G1 X95.153 Y22.539 E.03396
G1 X96.258 Y22.243 E.03586
G1 X131.983 Y22.257 E1.12014
G1 X133.539 Y22.496 E.04937
G1 X135.048 Y23.092 E.05088
G1 X136.386 Y24.01 E.05085
G1 X137.475 Y25.188 E.05032
G1 X138.247 Y26.509 E.04797
G1 X138.715 Y27.923 E.04668
G1 X138.886 Y29.359 E.04535
G1 X138.886 Y64.872 E1.11348
G1 X138.589 Y65.98 E.03597
G1 X138.886 Y67.087 E.03597
G1 X138.886 Y93.872 E.8398
G1 X138.589 Y94.98 E.03597
G1 X138.886 Y96.087 E.03597
G1 X138.886 Y131.604 E1.11358
G1 X138.646 Y133.321 E.05435
G1 X138.037 Y134.878 E.05244
G1 X137.115 Y136.22 E.05107
G1 X135.91 Y137.33 E.05136
G1 X134.786 Y138 E.04101
G1 X133.561 Y138.46 E.04103
G1 X131.777 Y138.716 E.0565
G1 X96.257 Y138.716 E1.1137
G1 X95.15 Y138.419 E.03597
G1 X94.042 Y138.716 E.03597
G1 X67.257 Y138.716 E.8398
G1 X66.15 Y138.419 E.03597
G1 X65.042 Y138.716 E.03597
G1 X29.526 Y138.716 E1.11358
G1 X27.809 Y138.477 E.05435
G1 X26.251 Y137.867 E.05244
G1 X24.909 Y136.945 E.05107
G1 X23.799 Y135.739 E.05136
G1 X23.13 Y134.616 E.041
G1 X22.669 Y133.391 E.04105
G1 X22.413 Y131.607 E.0565
G1 X22.413 Y96.087 E1.11369
G1 X22.711 Y94.98 E.03596
G1 X22.413 Y93.872 E.03596
G1 X22.413 Y67.087 E.8398
G1 X22.711 Y65.98 E.03596
G1 X22.413 Y64.872 E.03596
G1 X22.413 Y29.364 E1.11333
G1 X22.625 Y27.748 E.0511
G1 X23.168 Y26.267 E.04945
G1 X24.098 Y24.851 E.05315
G1 X24.406 Y25.06 F9000
G1 F1200
G1 X25.594 Y23.947 E.05105
G1 X26.657 Y23.309 E.03886
G1 X27.848 Y22.861 E.03991
G1 X29.511 Y22.622 E.05268
G1 X65.003 Y22.624 E1.11283
G1 X65.841 Y22.801 E.02684
G1 X66.124 Y22.927 E.00972
G1 X67.284 Y22.62 E.03761
G1 X94.082 Y22.63 E.84023
G1 X95.152 Y22.931 E.03485
G1 X96.284 Y22.62 E.0368
G1 X131.941 Y22.632 E1.11802
G1 X133.422 Y22.855 E.04695
G1 X134.854 Y23.416 E.04822
G1 X136.124 Y24.283 E.04821
G1 X137.161 Y25.398 E.04774
G1 X137.896 Y26.648 E.04547
G1 X138.343 Y27.987 E.04426
G1 X138.509 Y29.37 E.04369
G1 X138.509 Y64.846 E1.11232
G1 X138.197 Y65.98 E.03687
G1 X138.509 Y67.113 E.03687
G1 X138.509 Y93.846 E.83818
G1 X138.197 Y94.98 E.03687
G1 X138.509 Y96.113 E.03687
G1 X138.509 Y131.591 E1.11237
G1 X138.287 Y133.205 E.05109
G1 X137.713 Y134.684 E.04973
G1 X136.843 Y135.958 E.0484
G1 X135.699 Y137.016 E.04884
G1 X134.608 Y137.667 E.03985
G1 X133.449 Y138.099 E.03879
G1 X131.764 Y138.339 E.05335
G1 X96.283 Y138.339 E1.11247
G1 X95.15 Y138.027 E.03687
G1 X94.016 Y138.339 E.03687
G1 X67.283 Y138.339 E.83818
G1 X66.15 Y138.027 E.03687
G1 X65.016 Y138.339 E.03687
G1 X29.538 Y138.339 E1.11237
G1 X27.924 Y138.117 E.05109
G1 X26.445 Y137.543 E.04973
G1 X25.171 Y136.673 E.0484
G1 X24.113 Y135.529 E.04884
G1 X23.462 Y134.438 E.03984
G1 X23.03 Y133.278 E.0388
G1 X22.79 Y131.594 E.05335
G1 X22.79 Y96.113 E1.11247
G1 X23.102 Y94.98 E.03687
G1 X22.79 Y93.846 E.03687
G1 X22.79 Y67.113 E.83818
G1 X23.102 Y65.98 E.03687
G1 X22.79 Y64.846 E.03687
G1 X22.79 Y29.376 E1.11214
G1 X22.986 Y27.857 E.04802
G1 X23.496 Y26.455 E.04677
G1 X24.373 Y25.11 E.05034
G1 X24.681 Y25.318 F9000
G1 F1200
G1 X25.806 Y24.26 E.04843
G1 X26.836 Y23.641 E.03766
G1 X27.96 Y23.221 E.03765
G1 X29.524 Y22.999 E.04953
G1 X64.983 Y23.001 E1.11177
G1 X65.738 Y23.164 E.02424
G1 X66.133 Y23.348 E.01363
G1 X66.28 Y23.275 E.00515
G1 X67.309 Y22.997 E.03343
G1 X94.055 Y23.007 E.83858
G1 X95.15 Y23.323 E.03576
G1 X96.31 Y22.997 E.03777
G1 X131.9 Y23.007 E1.11591
G1 X133.306 Y23.214 E.04454
G1 X134.66 Y23.741 E.04557
G1 X135.864 Y24.556 E.04557
G1 X136.847 Y25.608 E.04515
G1 X137.545 Y26.788 E.04298
G1 X137.971 Y28.052 E.04182
G1 X138.132 Y29.382 E.04201
G1 X138.132 Y64.819 E1.11113
G1 X137.805 Y65.98 E.03779
G1 X138.132 Y67.14 E.03779
G1 X138.132 Y93.819 E.83652
G1 X137.805 Y94.98 E.03779
G1 X138.132 Y96.14 E.03779
G1 X138.132 Y131.578 E1.11115
G1 X137.927 Y133.091 E.04785
G1 X137.389 Y134.49 E.04702
G1 X136.57 Y135.697 E.04572
G1 X135.488 Y136.703 E.04632
G1 X134.46 Y137.32 E.0376
G1 X133.336 Y137.739 E.03759
G1 X131.751 Y137.962 E.05019
G1 X96.31 Y137.962 E1.11123
G1 X95.15 Y137.635 E.03779
G1 X93.989 Y137.962 E.03779
G1 X67.31 Y137.962 E.83652
G1 X66.15 Y137.635 E.03779
G1 X64.989 Y137.962 E.03779
G1 X29.551 Y137.962 E1.11115
G1 X28.039 Y137.757 E.04785
G1 X26.639 Y137.219 E.04702
G1 X25.432 Y136.4 E.04573
G1 X24.426 Y135.318 E.04632
G1 X23.809 Y134.29 E.03759
G1 X23.39 Y133.166 E.03761
G1 X23.167 Y131.581 E.05019
G1 X23.167 Y96.14 E1.11123
G1 X23.494 Y94.98 E.03779
G1 X23.167 Y93.819 E.03779
G1 X23.167 Y67.14 E.83652
G1 X23.494 Y65.98 E.03779
G1 X23.167 Y64.819 E.03779
G1 X23.167 Y29.388 E1.11094
G1 X23.348 Y27.965 E.04498
G1 X23.824 Y26.641 E.04409
G1 X24.649 Y25.369 E.04754
G1 X24.957 Y25.576 F9000
G1 F1200
G1 X26.018 Y24.572 E.04581
G1 X26.984 Y23.988 E.03538
G1 X28.073 Y23.582 E.03644
G1 X29.537 Y23.376 E.04637
G1 X64.962 Y23.378 E1.1107
G1 X65.634 Y23.527 E.02159
G1 X66.153 Y23.778 E.01808
G1 X66.41 Y23.631 E.00928
G1 X67.335 Y23.374 E.0301
G1 X94.028 Y23.384 E.83694
G1 X94.9 Y23.635 E.02843
G1 X95.15 Y23.779 E.00905
G1 X95.41 Y23.631 E.00939
G1 X96.335 Y23.374 E.03008
G1 X131.86 Y23.383 E1.11387
G1 X133.191 Y23.574 E.04214
G1 X134.468 Y24.066 E.04292
G1 X135.604 Y24.83 E.04293
G1 X136.534 Y25.819 E.04256
G1 X137.195 Y26.928 E.04049
G1 X137.599 Y28.117 E.03937
G1 X137.755 Y29.393 E.04031
G1 X137.755 Y64.794 E1.10998
G1 X137.499 Y65.719 E.03008
G1 X137.35 Y65.98 E.00941
G1 X137.499 Y66.24 E.00941
G1 X137.755 Y67.165 E.03008
G1 X137.755 Y93.794 E.83494
G1 X137.499 Y94.719 E.03008
G1 X137.35 Y94.98 E.00941
G1 X137.499 Y95.24 E.00941
G1 X137.755 Y96.165 E.03008
G1 X137.755 Y131.566 E1.10998
G1 X137.567 Y132.977 E.04464
G1 X137.064 Y134.298 E.04431
G1 X136.297 Y135.437 E.04304
G1 X135.277 Y136.39 E.04377
G1 X134.281 Y136.987 E.03641
G1 X133.225 Y137.378 E.03531
G1 X131.738 Y137.585 E.04707
G1 X96.335 Y137.585 E1.11004
G1 X95.41 Y137.329 E.03008
G1 X95.15 Y137.18 E.00941
G1 X94.889 Y137.329 E.00941
G1 X93.964 Y137.585 E.03008
G1 X67.335 Y137.585 E.83494
G1 X66.41 Y137.329 E.03008
G1 X66.15 Y137.18 E.00941
G1 X65.889 Y137.329 E.00941
G1 X64.964 Y137.585 E.03008
G1 X29.563 Y137.585 E1.10998
G1 X28.152 Y137.397 E.04464
G1 X26.831 Y136.894 E.04431
G1 X25.692 Y136.127 E.04305
G1 X24.739 Y135.107 E.04377
G1 X24.142 Y134.111 E.0364
G1 X23.751 Y133.055 E.03532
G1 X23.544 Y131.568 E.04706
G1 X23.544 Y96.165 E1.11004
G1 X23.8 Y95.24 E.03008
G1 X23.949 Y94.98 E.00941
G1 X23.8 Y94.719 E.00941
G1 X23.544 Y93.794 E.03008
G1 X23.544 Y67.165 E.83494
G1 X23.8 Y66.24 E.03008
G1 X23.949 Y65.98 E.00941
G1 X23.8 Y65.719 E.00941
G1 X23.544 Y64.794 E.03008
G1 X23.544 Y29.399 E1.10979
G1 X23.711 Y28.071 E.04197
G1 X24.153 Y26.826 E.04142
G1 X24.925 Y25.627 E.04472
G1 X25.234 Y25.833 F9000
G1 F1200
G1 X26.231 Y24.884 E.04316
G1 X27.164 Y24.321 E.03416
G1 X28.184 Y23.943 E.03412
G1 X29.55 Y23.753 E.04324
G1 X64.94 Y23.755 E1.10961
G1 X65.527 Y23.889 E.01887
G1 X66.176 Y24.211 E.02271
G1 X66.542 Y23.985 E.01349
G1 X67.362 Y23.752 E.02674
G1 X94 Y23.761 E.83521
G1 X94.765 Y23.988 E.02501
G1 X95.15 Y24.225 E.01417
G1 X95.542 Y23.985 E.01443
G1 X96.362 Y23.752 E.02673
G1 X131.821 Y23.758 E1.11181
G1 X133.077 Y23.934 E.03975
G1 X134.277 Y24.391 E.04026
G1 X135.345 Y25.105 E.04029
G1 X136.222 Y26.031 E.03997
G1 X136.845 Y27.07 E.038
G1 X137.227 Y28.183 E.0369
G1 X137.378 Y29.405 E.0386
G1 X137.378 Y64.767 E1.10877
G1 X137.144 Y65.587 E.02673
G1 X136.904 Y65.98 E.01443
G1 X137.144 Y66.372 E.01443
G1 X137.378 Y67.192 E.02673
G1 X137.378 Y93.767 E.83326
G1 X137.144 Y94.587 E.02673
G1 X136.904 Y94.98 E.01443
G1 X137.144 Y95.372 E.01443
G1 X137.378 Y96.192 E.02673
G1 X137.378 Y131.554 E1.10876
G1 X137.206 Y132.865 E.04146
G1 X136.738 Y134.107 E.04161
G1 X136.022 Y135.177 E.04036
G1 X135.064 Y136.078 E.04123
G1 X134.133 Y136.64 E.03411
G1 X133.113 Y137.017 E.03409
G1 X131.725 Y137.208 E.04393
G1 X96.362 Y137.208 E1.1088
G1 X95.542 Y136.974 E.02673
G1 X95.15 Y136.734 E.01443
G1 X94.757 Y136.974 E.01443
G1 X93.937 Y137.208 E.02673
G1 X67.362 Y137.208 E.83326
G1 X66.542 Y136.974 E.02673
G1 X66.15 Y136.734 E.01443
G1 X65.757 Y136.974 E.01443
G1 X64.937 Y137.208 E.02673
G1 X29.575 Y137.208 E1.10876
G1 X28.264 Y137.036 E.04146
G1 X27.022 Y136.568 E.04161
G1 X25.952 Y135.852 E.04037
G1 X25.051 Y134.894 E.04123
G1 X24.489 Y133.963 E.03409
G1 X24.112 Y132.943 E.0341
G1 X23.921 Y131.555 E.04393
G1 X23.921 Y96.192 E1.1088
G1 X24.155 Y95.372 E.02673
G1 X24.395 Y94.98 E.01443
G1 X24.155 Y94.587 E.01443
G1 X23.921 Y93.767 E.02673
G1 X23.921 Y67.192 E.83326
G1 X24.155 Y66.372 E.02673
G1 X24.395 Y65.98 E.01443
G1 X24.155 Y65.587 E.01443
G1 X23.921 Y64.767 E.02673
G1 X23.921 Y29.41 E1.10859
G1 X24.073 Y28.176 E.03899
G1 X24.483 Y27.01 E.03876
G1 X25.202 Y25.884 E.0419
G1 X25.512 Y26.089 F9000
G1 F1200
G1 X26.445 Y25.195 E.04051
G1 X27.312 Y24.668 E.03181
G1 X28.296 Y24.303 E.0329
G1 X29.563 Y24.13 E.0401
G1 X64.917 Y24.132 E1.10851
G1 X65.416 Y24.251 E.0161
G1 X65.886 Y24.488 E.01648
G1 X66.123 Y24.697 E.00993
G1 X66.677 Y24.338 E.02071
G1 X67.39 Y24.129 E.02329
G1 X93.971 Y24.138 E.83343
G1 X94.627 Y24.34 E.02152
G1 X95.149 Y24.676 E.01949
G1 X95.677 Y24.338 E.01964
G1 X96.39 Y24.129 E.0233
G1 X131.783 Y24.133 E1.10975
G1 X132.964 Y24.294 E.03737
G1 X134.087 Y24.717 E.03761
G1 X135.087 Y25.381 E.03764
G1 X135.91 Y26.244 E.03738
G1 X136.495 Y27.213 E.03551
G1 X136.856 Y28.249 E.0344
G1 X137.001 Y29.417 E.03687
G1 X137.001 Y64.74 E1.10753
G1 X136.791 Y65.453 E.0233
G1 X136.453 Y65.98 E.01963
G1 X136.791 Y66.507 E.01963
G1 X137.001 Y67.22 E.0233
G1 X137.001 Y93.74 E.83151
G1 X136.791 Y94.453 E.0233
G1 X136.453 Y94.98 E.01963
G1 X136.791 Y95.507 E.01963
G1 X137.001 Y96.22 E.0233
G1 X137.001 Y131.542 E1.10749
G1 X136.835 Y132.794 E.03962
G1 X136.412 Y133.917 E.03761
G1 X135.747 Y134.918 E.03769
G1 X134.852 Y135.766 E.03864
G1 X133.954 Y136.308 E.03288
G1 X133.003 Y136.656 E.03175
G1 X131.713 Y136.831 E.04083
G1 X96.39 Y136.831 E1.10753
G1 X95.677 Y136.621 E.0233
G1 X95.15 Y136.283 E.01963
G1 X94.622 Y136.621 E.01963
G1 X93.909 Y136.831 E.0233
G1 X67.39 Y136.831 E.83151
G1 X66.677 Y136.621 E.0233
G1 X66.15 Y136.283 E.01963
G1 X65.622 Y136.621 E.01963
G1 X64.909 Y136.831 E.0233
G1 X29.588 Y136.831 E1.10749
G1 X28.335 Y136.665 E.03962
G1 X27.213 Y136.242 E.03761
G1 X26.211 Y135.577 E.0377
G1 X25.363 Y134.681 E.03868
G1 X24.837 Y133.815 E.03176
G1 X24.473 Y132.832 E.03287
G1 X24.299 Y131.543 E.04079
G1 X24.299 Y96.22 E1.10753
G1 X24.508 Y95.507 E.0233
G1 X24.846 Y94.98 E.01963
G1 X24.508 Y94.453 E.01963
G1 X24.299 Y93.74 E.0233
G1 X24.299 Y67.22 E.83151
G1 X24.508 Y66.507 E.0233
G1 X24.846 Y65.98 E.01963
G1 X24.508 Y65.453 E.01963
G1 X24.299 Y64.74 E.0233
G1 X24.299 Y29.422 E1.10737
G1 X24.436 Y28.28 E.03604
G1 X24.814 Y27.193 E.0361
G1 X25.48 Y26.14 E.03908
G1 X25.791 Y26.344 F9000
G1 F1200
G1 X26.659 Y25.506 E.03783
G1 X27.492 Y25 E.03055
G1 X28.406 Y24.665 E.03052
G1 X29.575 Y24.507 E.037
G1 X64.895 Y24.509 E1.10743
G1 X65.266 Y24.597 E.01196
G1 X65.687 Y24.81 E.01478
G1 X66.151 Y25.256 E.02018
G1 X66.53 Y24.872 E.01691
G1 X66.812 Y24.691 E.01052
G1 X67.419 Y24.506 E.01988
G1 X93.94 Y24.515 E.83156
G1 X94.487 Y24.691 E.01801
G1 X94.769 Y24.872 E.01051
G1 X95.15 Y25.257 E.01698
G1 X95.53 Y24.872 E.01698
G1 X95.812 Y24.691 E.01052
G1 X96.419 Y24.506 E.01987
